FuXuhui/noetix_n2_gym/datasets/mocap_motions/ning/walking/Walking_3_joints.csv
time,L_arm_shoulder_pitch_joint,L_arm_shoulder_roll_joint,L_arm_shoulder_yaw_joint,L_arm_elbow_joint,L_leg_hip_yaw_joint,L_leg_hip_roll_joint,L_leg_hip_pitch_joint,L_leg_knee_joint,L_leg_ankle_joint,R_arm_shoulder_pitch_joint,R_arm_shoulder_roll_joint,R_arm_shoulder_yaw_joint,R_arm_elbow_joint,R_leg_hip_yaw_joint,R_leg_hip_roll_joint,R_leg_hip_pitch_joint,R_leg_knee_joint,R_leg_ankle_joint
0.0000,-0.480274,0.178246,-0.441080,-0.493803,0.129512,-0.414232,0.137966,0.118851,-0.240833,0.226614,-0.306507,0.167756,-0.385799,-0.124593,0.102330,-0.805561,1.357898,-0.111987
0.0334,-0.560400,0.151808,-0.461023,-0.585796,0.062176,-0.413622,0.029254,0.225926,-0.297736,0.289963,-0.340087,0.078146,-0.541236,-0.095564,0.057873,-0.993119,1.314737,-0.132915
0.0668,-0.618672,0.144101,-0.499205,-0.600591,0.069579,-0.369234,-0.007933,0.308102,-0.345098,0.291913,-0.306581,0.044564,-0.557550,-0.014973,0.000034,-0.963175,1.031754,-0.122923
0.1001,-0.656829,0.125240,-0.512198,-0.612365,0.059654,-0.358588,-0.004800,0.333883,-0.377924,0.277107,-0.300506,0.017900,-0.556992,0.003709,0.027894,-0.933196,0.774309,-0.125923
0.1335,-0.678141,0.112666,-0.512690,-0.619056,0.044277,-0.349801,0.002814,0.345391,-0.398138,0.248424,-0.299889,0.009144,-0.550349,0.024986,0.073000,-0.894155,0.525405,-0.078651
0.1669,-0.670619,0.107173,-0.509517,-0.628493,0.037722,-0.343506,0.013507,0.403412,-0.440385,0.224175,-0.309031,0.006055,-0.553234,0.043621,0.064236,-0.915235,0.485701,-0.104109
0.2003,-0.646960,0.104537,-0.514869,-0.624179,0.049534,-0.326540,0.021065,0.486853,-0.477493,0.198228,-0.301010,0.002907,-0.550791,0.063772,0.039250,-0.903200,0.507757,-0.104013
0.2336,-0.604241,0.107933,-0.529149,-0.605057,0.076143,-0.299618,0.023713,0.603040,-0.514590,0.173508,-0.283818,0.006562,-0.549447,0.087999,-0.037278,-0.885718,0.585643,-0.108763
0.2670,-0.553229,0.126098,-0.547868,-0.582431,0.101159,-0.271958,0.005104,0.751506,-0.522074,0.144975,-0.292757,0.039250,-0.542994,0.085013,-0.054804,-0.900345,0.707049,-0.100734
0.3004,-0.479533,0.145192,-0.558249,-0.542061,0.154763,-0.245570,-0.041454,0.965832,-0.479821,0.112922,-0.284517,0.068447,-0.533637,0.086051,-0.015545,-0.903705,0.847335,-0.156416
0.3338,-0.383405,0.169869,-0.571469,-0.441491,0.206489,-0.160125,-0.203532,1.341506,-0.413131,0.057787,-0.227363,0.123688,-0.495401,0.112348,0.046269,-0.890215,0.988295,-0.252156
0.3671,-0.376011,0.212608,-0.549956,-0.336314,0.262873,-0.103178,-0.526053,1.719164,-0.309429,-0.055835,-0.173431,0.152914,-0.482358,0.141205,0.114264,-0.918319,0.989466,-0.267468
0.4005,-0.328615,0.257541,-0.522253,-0.297573,0.288426,-0.064864,-0.741257,1.925688,-0.292469,-0.124578,-0.163400,0.195320,-0.518220,0.145013,0.173629,-0.886430,0.976952,-0.308239
0.4339,-0.259012,0.312905,-0.492896,-0.283390,0.307430,-0.032931,-0.908022,2.036615,-0.315362,-0.185317,-0.159992,0.247957,-0.551118,0.148998,0.226916,-0.823502,0.961924,-0.353061
0.4673,-0.159247,0.362865,-0.391521,-0.305357,0.329122,-0.039348,-1.024350,2.057747,-0.294020,-0.220869,-0.152351,0.243583,-0.581876,0.143852,0.269921,-0.728578,0.929562,-0.389769
0.5006,-0.058234,0.393288,-0.294126,-0.322423,0.327374,-0.054598,-1.082716,1.991530,-0.288943,-0.246270,-0.154124,0.234989,-0.610008,0.115848,0.305292,-0.602271,0.877872,-0.430261
0.5340,0.025895,0.402744,-0.196938,-0.335717,0.304914,-0.083233,-1.117880,1.875175,-0.276607,-0.273173,-0.167705,0.234662,-0.639094,0.076018,0.328262,-0.487766,0.818866,-0.455047
0.5674,0.099067,0.396223,-0.094943,-0.340208,0.277862,-0.154574,-1.113800,1.670904,-0.248704,-0.280084,-0.178176,0.172702,-0.705171,0.035530,0.324079,-0.395090,0.763590,-0.469469
0.6008,0.147790,0.397772,-0.035969,-0.365842,0.239945,-0.184297,-1.118740,1.442287,-0.198072,-0.313560,-0.201265,0.178066,-0.745000,0.001606,0.346088,-0.319387,0.703782,-0.480337
0.6341,0.191773,0.397951,0.022921,-0.388661,0.205746,-0.246167,-1.077510,1.154597,-0.149954,-0.342016,-0.221537,0.181741,-0.776659,-0.033613,0.369800,-0.239311,0.638655,-0.491591
0.6675,0.222542,0.395411,0.067754,-0.409232,0.161406,-0.367901,-0.996386,0.818445,-0.086074,-0.363562,-0.240210,0.178984,-0.801208,-0.071454,0.391259,-0.163943,0.571691,-0.497895
0.7009,0.222495,0.430011,0.081209,-0.402642,0.148567,-0.484247,-1.078259,0.778031,-0.137559,-0.367088,-0.239568,0.168868,-0.817625,-0.072719,0.442751,-0.132616,0.616543,-0.554886
0.7343,0.223391,0.445294,0.100231,-0.396243,0.116791,-0.563548,-1.119344,0.708816,-0.175162,-0.373514,-0.239570,0.160454,-0.831827,-0.088636,0.477333,-0.102542,0.645854,-0.588827
0.7676,0.249433,0.378781,0.153247,-0.406397,0.086640,-0.585712,-0.820685,0.227287,0.007372,-0.374013,-0.259027,0.168619,-0.821341,-0.156444,0.468937,0.000624,0.553833,-0.545342
0.8010,0.233931,0.368111,0.159100,-0.393262,0.110711,-0.556920,-0.768668,0.208269,0.030128,-0.359315,-0.261153,0.161395,-0.821771,-0.183284,0.471702,0.027378,0.601091,-0.548697
0.8344,0.201912,0.366696,0.154283,-0.389203,0.114016,-0.558067,-0.755069,0.237237,0.044656,-0.338057,-0.265016,0.145811,-0.818913,-0.219134,0.470155,0.029675,0.673486,-0.517022
0.8678,0.182191,0.320624,0.118492,-0.363311,0.144660,-0.555185,-0.643010,0.286393,-0.007891,-0.262944,-0.253457,0.115571,-0.777983,-0.283208,0.412240,0.034228,0.831396,-0.443753
0.9011,0.147115,0.270121,0.049978,-0.333177,0.151245,-0.566333,-0.520172,0.355158,-0.100349,-0.175581,-0.267495,0.092174,-0.710938,-0.341080,0.312271,-0.042224,1.099985,-0.347113
0.9345,0.089961,0.230898,-0.023151,-0.321130,0.153724,-0.571827,-0.440589,0.419127,-0.183813,-0.107615,-0.287106,0.076270,-0.645213,-0.331483,0.212717,-0.192091,1.384701,-0.278664
0.9679,0.009181,0.213097,-0.079549,-0.339017,0.145480,-0.577159,-0.394625,0.404422,-0.219308,-0.082147,-0.295252,0.070243,-0.589572,-0.277505,0.145676,-0.391029,1.622169,-0.280103
1.0013,-0.079645,0.209024,-0.139588,-0.370863,0.132251,-0.556555,-0.339954,0.343159,-0.225562,-0.047626,-0.298539,0.062303,-0.560483,-0.228296,0.107323,-0.566328,1.770909,-0.284211
1.0346,-0.179120,0.196863,-0.229969,-0.390795,0.108027,-0.538740,-0.266328,0.274618,-0.224888,0.002805,-0.310027,0.048266,-0.542980,-0.215011,0.074161,-0.708173,1.852829,-0.276782
1.0680,-0.275827,0.179025,-0.334829,-0.406434,0.095695,-0.529248,-0.205856,0.258390,-0.236675,0.063499,-0.316987,0.033627,-0.538003,-0.194498,0.036747,-0.817097,1.872009,-0.265391
1.1014,-0.361447,0.162679,-0.406781,-0.427339,0.098679,-0.513186,-0.174117,0.304539,-0.276474,0.122654,-0.311935,0.003108,-0.534190,-0.154796,-0.000081,-0.896594,1.826852,-0.263741
1.1348,-0.436339,0.148351,-0.462085,-0.449982,0.110936,-0.484934,-0.156729,0.373973,-0.325688,0.176526,-0.297813,-0.025531,-0.530688,-0.100094,-0.045266,-0.943977,1.731164,-0.265215
1.1682,-0.507911,0.129687,-0.527292,-0.463805,0.124543,-0.447854,-0.148339,0.455886,-0.376980,0.226088,-0.270930,-0.050692,-0.531652,-0.054620,-0.075263,-0.957063,1.581242,-0.252134
1.2015,-0.576275,0.103885,-0.585953,-0.470617,0.125562,-0.413223,-0.144470,0.522182,-0.420409,0.254483,-0.259131,-0.049639,-0.529009,-0.024846,-0.096647,-0.960227,1.399776,-0.236069
1.2349,-0.641326,0.076603,-0.626403,-0.472131,0.114309,-0.391421,-0.122028,0.534894,-0.441338,0.260649,-0.264282,-0.033039,-0.519838,-0.020404,-0.092749,-0.955015,1.180735,-0.195352
1.2683,-0.679061,0.055953,-0.622548,-0.494388,0.104089,-0.379938,-0.093792,0.518501,-0.453562,0.247195,-0.274223,-0.012562,-0.512560,-0.014637,-0.046698,-0.930527,0.924087,-0.153766
1.3017,-0.692419,0.046969,-0.601609,-0.521471,0.104645,-0.372653,-0.052344,0.494042,-0.470293,0.224758,-0.279598,0.003285,-0.499743,0.009636,0.001306,-0.883572,0.664129,-0.123448
1.3350,-0.692509,0.035675,-0.563130,-0.552935,0.104606,-0.369964,-0.013330,0.482899,-0.486303,0.197510,-0.283097,0.002268,-0.489773,0.026549,-0.017455,-0.840030,0.467452,-0.105201
1.3684,-0.681261,0.048100,-0.555579,-0.554103,0.108523,-0.361625,-0.006881,0.549365,-0.534106,0.172830,-0.286652,-0.002647,-0.484284,0.044058,-0.031842,-0.866541,0.489923,-0.120079
1.4018,-0.651068,0.053111,-0.548051,-0.547115,0.134665,-0.318634,-0.000573,0.642722,-0.568085,0.148572,-0.264744,-0.011118,-0.475788,0.080170,-0.077088,-0.867503,0.585052,-0.103937
1.4352,-0.606976,0.067510,-0.540311,-0.531953,0.155300,-0.290755,-0.006122,0.766539,-0.577180,0.119466,-0.257648,-0.011619,-0.471141,0.090379,-0.113932,-0.889906,0.714661,-0.099500
1.4685,-0.535588,0.084006,-0.519725,-0.498182,0.191596,-0.250232,-0.028910,0.943761,-0.546102,0.088618,-0.241709,-0.008193,-0.465438,0.097018,-0.083124,-0.898364,0.864113,-0.155125
1.5019,-0.427288,0.109831,-0.489453,-0.416511,0.239046,-0.156021,-0.129432,1.253808,-0.476155,0.063136,-0.182133,-0.003902,-0.454125,0.126347,-0.022684,-0.866770,1.010360,-0.258598
1.5353,-0.391019,0.162076,-0.447757,-0.332239,0.291945,-0.088342,-0.397295,1.622087,-0.379618,-0.008141,-0.134416,0.006033,-0.466378,0.157839,0.044993,-0.863796,1.017439,-0.291734
1.5687,-0.329070,0.214456,-0.379974,-0.317707,0.356932,-0.055458,-0.606514,1.861372,-0.307592,-0.056756,-0.115377,0.017316,-0.506338,0.169909,0.108410,-0.823579,1.004871,-0.331093
1.6020,-0.261022,0.274804,-0.335595,-0.305208,0.416823,-0.042142,-0.765909,2.000993,-0.352097,-0.095307,-0.104992,0.037976,-0.544981,0.175538,0.173143,-0.752604,0.983261,-0.383393
1.6354,-0.180053,0.326968,-0.275649,-0.307574,0.420673,-0.043867,-0.893522,2.056169,-0.349688,-0.127911,-0.112569,0.064921,-0.568720,0.162961,0.222050,-0.660109,0.955008,-0.425692
1.6688,-0.092234,0.368417,-0.215563,-0.328589,0.388490,-0.073423,-0.984606,2.026654,-0.327408,-0.151608,-0.133048,0.081633,-0.594605,0.132234,0.253566,-0.555718,0.914030,-0.456609
1.7022,-0.007922,0.394791,-0.129810,-0.357248,0.326624,-0.099741,-1.048449,1.925569,-0.310267,-0.167784,-0.165847,0.086414,-0.626243,0.082186,0.280455,-0.447598,0.862376,-0.478298
1.7355,0.067222,0.411155,-0.029489,-0.397021,0.277367,-0.124823,-1.086470,1.773899,-0.286182,-0.186704,-0.201095,0.091850,-0.657624,0.028717,0.304130,-0.352736,0.818159,-0.498166
1.7689,0.132585,0.425503,0.082463,-0.431926,0.251561,-0.151591,-1.098796,1.567967,-0.254451,-0.209667,-0.226009,0.096329,-0.687107,-0.010747,0.326145,-0.267089,0.762974,-0.504469
1.8023,0.179910,0.444999,0.153797,-0.451231,0.236429,-0.192985,-1.075885,1.303736,-0.214711,-0.236613,-0.247247,0.115765,-0.709415,-0.042276,0.355914,-0.179345,0.691925,-0.502751
1.8357,0.211927,0.456482,0.212337,-0.458840,0.210652,-0.281158,-1.014454,0.976406,-0.144405,-0.261197,-0.264632,0.120503,-0.729998,-0.075389,0.382641,-0.101402,0.610877,-0.491818
1.8690,0.219521,0.493787,0.230333,-0.444325,0.207105,-0.385232,-1.098894,0.932552,-0.180540,-0.265207,-0.268743,0.120422,-0.747302,-0.085425,0.421149,-0.066028,0.653260,-0.546228
1.9024,0.234662,0.468091,0.282259,-0.446034,0.119722,-0.486504,-0.888420,0.339816,0.007389,-0.293643,-0.293622,0.128396,-0.775280,-0.131925,0.441779,-0.004728,0.520384,-0.481855
1.9358,0.213655,0.483529,0.290840,-0.440003,0.096825,-0.515174,-0.923947,0.298509,0.008371,-0.299603,-0.303840,0.117765,-0.792338,-0.147174,0.469917,-0.001967,0.562592,-0.496336
1.9692,0.221881,0.460404,0.305506,-0.425782,0.134625,-0.511597,-0.842544,0.292587,0.030331,-0.285800,-0.298910,0.107424,-0.802215,-0.177100,0.456212,0.038469,0.600060,-0.493434
2.0025,0.227816,0.439044,0.300193,-0.412375,0.168608,-0.507958,-0.760185,0.309671,-0.021943,-0.248428,-0.291608,0.101537,-0.796131,-0.218657,0.437264,0.084101,0.664503,-0.460926
2.0359,0.225350,0.404793,0.269181,-0.399103,0.187912,-0.501888,-0.691418,0.359880,-0.045155,-0.198885,-0.283429,0.090299,-0.778687,-0.270881,0.400773,0.089494,0.778420,-0.379195
2.0693,0.207184,0.362792,0.223435,-0.384528,0.200364,-0.496248,-0.608641,0.436737,-0.114217,-0.129871,-0.283518,0.074842,-0.749768,-0.323738,0.343970,0.048540,0.970312,-0.288512
2.1027,0.174992,0.311792,0.142258,-0.365518,0.199471,-0.501270,-0.520305,0.516950,-0.207452,-0.053797,-0.298831,0.068379,-0.713134,-0.352923,0.252710,-0.075441,1.246082,-0.213860
2.1360,0.100679,0.255387,0.046279,-0.344842,0.178297,-0.533752,-0.433953,0.487420,-0.243518,-0.026184,-0.326962,0.086000,-0.667455,-0.336534,0.163342,-0.307350,1.539103,-0.166773
2.1694,0.005889,0.239433,-0.056833,-0.354791,0.163063,-0.546139,-0.374172,0.402649,-0.238614,-0.007028,-0.325907,0.091822,-0.644230,-0.263469,0.123258,-0.525815,1.723487,-0.158943
2.2028,-0.100816,0.240165,-0.193769,-0.368957,0.153954,-0.527655,-0.313799,0.301747,-0.213551,0.023457,-0.311137,0.087943,-0.632616,-0.185180,0.116535,-0.705720,1.816822,-0.135796
2.2362,-0.205094,0.226364,-0.311612,-0.379574,0.131801,-0.510563,-0.237635,0.218969,-0.195072,0.074945,-0.309858,0.075815,-0.627775,-0.134999,0.087061,-0.841954,1.852746,-0.129235
2.2696,-0.286408,0.195677,-0.367979,-0.415095,0.121454,-0.487496,-0.207655,0.257219,-0.235458,0.130102,-0.309447,0.073409,-0.618256,-0.086576,0.046182,-0.930191,1.830245,-0.154162
2.3029,-0.366704,0.161178,-0.432053,-0.447798,0.118272,-0.465604,-0.186719,0.319731,-0.285580,0.183488,-0.297331,0.068131,-0.605990,-0.042057,-0.012318,-0.992666,1.754856,-0.190025
2.3363,-0.442978,0.125301,-0.501113,-0.473286,0.125465,-0.465230,-0.160230,0.395961,-0.343317,0.231799,-0.290351,0.066618,-0.592704,-0.024347,-0.058342,-1.029346,1.641614,-0.203275
2.3697,-0.527774,0.084392,-0.570556,-0.476815,0.127353,-0.448539,-0.130634,0.445526,-0.390143,0.266915,-0.276523,0.068085,-0.574223,-0.014123,-0.076994,-1.030946,1.465621,-0.201760
2.4031,-0.594208,0.043095,-0.592752,-0.485083,0.114224,-0.430910,-0.101218,0.459938,-0.410586,0.278696,-0.270955,0.072742,-0.547976,-0.006261,-0.089414,-1.024559,1.254665,-0.176507
2.4364,-0.640587,0.018813,-0.590720,-0.506336,0.117920,-0.419975,-0.063023,0.470071,-0.441580,0.279900,-0.268392,0.083333,-0.526655,0.007588,-0.067556,-0.995474,1.013939,-0.141186
2.4698,-0.667382,0.017791,-0.593367,-0.542745,0.108344,-0.419894,-0.030398,0.458605,-0.455340,0.254710,-0.271527,0.095513,-0.495469,0.025137,-0.013108,-0.954808,0.743092,-0.098001
2.5032,-0.677162,0.017649,-0.573768,-0.568716,0.110105,-0.425000,0.007175,0.454584,-0.471343,0.226613,-0.274433,0.102668,-0.475153,0.052484,0.009284,-0.892630,0.482615,-0.063028
2.5366,-0.678346,0.015200,-0.562362,-0.581200,0.106283,-0.429838,0.012982,0.526031,-0.513615,0.205958,-0.294778,0.100277,-0.478949,0.062174,0.018160,-0.931736,0.487485,-0.089398
2.5699,-0.669441,0.016593,-0.555616,-0.585475,0.116898,-0.405824,0.014141,0.616042,-0.541891,0.183925,-0.293952,0.086195,-0.483246,0.073076,-0.016886,-0.940683,0.554589,-0.075837
2.6033,-0.638674,0.023868,-0.551092,-0.570280,0.144009,-0.370507,0.019308,0.726470,-0.557101,0.159465,-0.282904,0.067457,-0.485698,0.081812,-0.045835,-0.952747,0.663312,-0.056562
2.6367,-0.581159,0.040783,-0.540989,-0.533166,0.199037,-0.341001,0.010846,0.890549,-0.514409,0.130338,-0.266348,0.048526,-0.481299,0.085846,-0.021902,-0.963485,0.809304,-0.090283
2.6701,-0.473748,0.067117,-0.522558,-0.446602,0.265157,-0.253469,-0.059399,1.183517,-0.433523,0.099498,-0.199684,0.029273,-0.447082,0.121861,0.023694,-0.928844,0.976673,-0.194613
2.7034,-0.429421,0.118068,-0.511637,-0.342461,0.316200,-0.167204,-0.288272,1.549539,-0.340554,0.017704,-0.140158,0.053458,-0.417644,0.162408,0.083220,-0.899309,1.006561,-0.253041
2.7368,-0.379318,0.170812,-0.465422,-0.299897,0.368697,-0.122889,-0.488979,1.797832,-0.272456,-0.040762,-0.113860,0.079377,-0.452419,0.175546,0.137911,-0.845301,0.990168,-0.301435
2.7702,-0.318901,0.230927,-0.410526,-0.284120,0.402085,-0.086933,-0.674536,1.958380,-0.324890,-0.088728,-0.100867,0.108905,-0.507482,0.182979,0.196093,-0.783733,0.967274,-0.339692
2.8036,-0.235091,0.286106,-0.337900,-0.291331,0.399577,-0.071852,-0.822725,2.028575,-0.333314,-0.132264,-0.106314,0.147056,-0.548211,0.172369,0.233967,-0.704325,0.952858,-0.389454
2.8369,-0.133985,0.327051,-0.243128,-0.322479,0.377559,-0.076479,-0.917641,2.014951,-0.319452,-0.161097,-0.119413,0.163840,-0.584109,0.141218,0.264134,-0.591686,0.924375,-0.433705
2.8703,-0.035849,0.359433,-0.175113,-0.363585,0.334270,-0.083275,-0.985620,1.929709,-0.306009,-0.180793,-0.140888,0.175458,-0.629165,0.094182,0.294362,-0.463483,0.866142,-0.466857
2.9037,0.035342,0.391564,-0.140210,-0.388166,0.299665,-0.119896,-1.039314,1.790308,-0.286466,-0.206425,-0.165234,0.194987,-0.679624,0.052710,0.317539,-0.362460,0.813401,-0.487549
2.9371,0.103993,0.416754,-0.089971,-0.418748,0.267554,-0.148728,-1.055145,1.594045,-0.256592,-0.229784,-0.192206,0.215631,-0.726677,0.007166,0.341810,-0.264059,0.762930,-0.506753
2.9704,0.154361,0.434090,-0.052217,-0.434754,0.233782,-0.207229,-1.032884,1.324821,-0.211603,-0.254469,-0.220004,0.232672,-0.767737,-0.036622,0.363228,-0.174712,0.697012,-0.509931
3.0038,0.198971,0.439523,-0.003069,-0.449228,0.187834,-0.326174,-0.955408,0.981111,-0.151894,-0.280638,-0.251470,0.246311,-0.797307,-0.087379,0.378117,-0.093313,0.629457,-0.515466
3.0372,0.221541,0.452322,0.037996,-0.447578,0.141678,-0.460217,-0.873124,0.601736,-0.083016,-0.301744,-0.266649,0.242338,-0.825746,-0.115140,0.411677,-0.030188,0.560613,-0.502870
3.0706,0.222271,0.481130,0.052710,-0.437380,0.111441,-0.521642,-0.958834,0.557813,-0.129021,-0.308467,-0.274099,0.234070,-0.844501,-0.124589,0.451190,-0.011565,0.606162,-0.538935
3.1039,0.251556,0.452087,0.107419,-0.422549,0.083101,-0.536298,-0.728764,0.104935,0.047282,-0.325627,-0.275249,0.228516,-0.843656,-0.162690,0.454264,0.047671,0.569258,-0.514554
3.1373,0.252335,0.438463,0.130771,-0.407242,0.109430,-0.514583,-0.671286,0.086540,0.086042,-0.316174,-0.272557,0.213274,-0.846192,-0.190390,0.452928,0.067887,0.629756,-0.513396
3.1707,0.259326,0.410548,0.143958,-0.382751,0.129422,-0.504219,-0.598944,0.088979,0.084748,-0.285276,-0.266639,0.203325,-0.832699,-0.236637,0.431294,0.086061,0.729736,-0.479670
3.2041,0.252132,0.375424,0.135706,-0.356379,0.151640,-0.484130,-0.514884,0.117872,0.077503,-0.233878,-0.256747,0.184916,-0.803488,-0.278398,0.388886,0.057984,0.896939,-0.386411
3.2375,0.229400,0.330460,0.088120,-0.328124,0.168489,-0.477332,-0.411125,0.162982,0.014697,-0.170427,-0.251875,0.168169,-0.754946,-0.310652,0.311033,-0.052018,1.167089,-0.281493
3.2708,0.175487,0.287175,0.017234,-0.316666,0.157906,-0.493492,-0.350251,0.227582,-0.066364,-0.122382,-0.263245,0.158753,-0.689304,-0.303656,0.215696,-0.245228,1.468088,-0.177135
3.3042,0.085531,0.258381,-0.075643,-0.314346,0.134774,-0.507815,-0.349697,0.283632,-0.123616,-0.105620,-0.267949,0.154218,-0.619245,-0.259679,0.149324,-0.481033,1.715417,-0.145707
3.3376,-0.004572,0.251041,-0.133611,-0.344756,0.132294,-0.490007,-0.320500,0.285854,-0.154381,-0.058491,-0.258155,0.136676,-0.593277,-0.194665,0.119375,-0.643244,1.836432,-0.171098
3.3710,-0.104363,0.235301,-0.249034,-0.357522,0.121906,-0.481212,-0.256746,0.260054,-0.171709,0.007681,-0.259446,0.119357,-0.578366,-0.161724,0.093185,-0.767190,1.894587,-0.175998
3.4043,-0.208792,0.200876,-0.306136,-0.387215,0.085274,-0.473704,-0.230191,0.289233,-0.201989,0.076237,-0.275628,0.098022,-0.570701,-0.154284,0.056204,-0.881240,1.911582,-0.182332
3.4377,-0.300711,0.174841,-0.369136,-0.420436,0.066817,-0.456761,-0.229359,0.365788,-0.254257,0.137285,-0.282441,0.084665,-0.559614,-0.117452,0.006107,-0.965647,1.865261,-0.197791
3.4711,-0.386775,0.150918,-0.442783,-0.448410,0.058130,-0.418053,-0.231188,0.463698,-0.308037,0.199522,-0.267951,0.057977,-0.547427,-0.072408,-0.047042,-1.007935,1.761996,-0.203601
3.5045,-0.463012,0.116537,-0.514101,-0.462845,0.057694,-0.385019,-0.215770,0.562194,-0.373990,0.261504,-0.245234,0.031046,-0.534044,-0.036048,-0.081267,-1.003960,1.613773,-0.206833
3.5378,-0.546622,0.065159,-0.571044,-0.450452,0.052828,-0.372942,-0.174852,0.580694,-0.399505,0.302063,-0.236257,0.023410,-0.522298,-0.025878,-0.092078,-0.994140,1.418693,-0.188923
3.5712,-0.607331,0.027085,-0.577381,-0.465016,0.037780,-0.366945,-0.140407,0.577420,-0.414737,0.318229,-0.239682,0.020324,-0.508765,-0.019015,-0.085590,-0.980160,1.195772,-0.157961
3.6046,-0.643079,0.019462,-0.560439,-0.503447,0.027528,-0.361427,-0.123053,0.574063,-0.428179,0.302896,-0.250186,0.043091,-0.489876,0.001482,-0.041723,-0.950959,0.929115,-0.111001
3.6380,-0.659709,0.019432,-0.541106,-0.535678,0.031638,-0.361021,-0.091677,0.564581,-0.442445,0.280145,-0.260864,0.059726,-0.470920,0.041680,-0.003589,-0.896328,0.663364,-0.082196
3.6713,-0.658155,0.020872,-0.526858,-0.554729,0.043003,-0.359192,-0.048902,0.571509,-0.463479,0.255954,-0.266578,0.069635,-0.450905,0.081174,-0.016682,-0.836103,0.480493,-0.067292
3.7047,-0.654076,0.020909,-0.521849,-0.562120,0.041211,-0.348344,-0.052537,0.652261,-0.496057,0.235221,-0.283075,0.069771,-0.453287,0.096431,-0.041686,-0.862181,0.533625,-0.082839
3.7381,-0.637937,0.022125,-0.521088,-0.558424,0.049212,-0.319766,-0.051944,0.744116,-0.522941,0.212490,-0.285620,0.069943,-0.453392,0.116356,-0.097478,-0.862866,0.628927,-0.108075
3.7715,-0.599882,0.024531,-0.519148,-0.538369,0.061237,-0.307455,-0.044360,0.856101,-0.520890,0.188378,-0.288703,0.077106,-0.452289,0.110873,-0.133326,-0.876222,0.753485,-0.119304
3.8048,-0.545077,0.031085,-0.519758,-0.503059,0.091115,-0.297830,-0.051802,1.011459,-0.462609,0.162941,-0.291845,0.086560,-0.452397,0.092689,-0.097811,-0.880721,0.893000,-0.171101
3.8382,-0.473268,0.045529,-0.524190,-0.409241,0.131449,-0.238388,-0.157469,1.294729,-0.380776,0.132000,-0.261298,0.097124,-0.445872,0.102509,-0.046968,-0.862678,1.024136,-0.260191
3.8716,-0.479787,0.094081,-0.528664,-0.304727,0.190018,-0.198203,-0.464369,1.660881,-0.288414,0.047377,-0.219534,0.087670,-0.473876,0.128806,0.014815,-0.910355,1.040875,-0.274181
3.9050,-0.441770,0.149020,-0.493294,-0.265197,0.271549,-0.173979,-0.656483,1.876481,-0.274469,-0.004586,-0.202807,0.101183,-0.507924,0.141527,0.083829,-0.873562,1.030283,-0.317699
3.9383,-0.370371,0.218454,-0.455891,-0.255004,0.328913,-0.139585,-0.807458,1.997935,-0.315452,-0.053416,-0.188878,0.134887,-0.538472,0.155718,0.151949,-0.800996,1.010307,-0.362433
3.9717,-0.275711,0.279020,-0.386502,-0.266297,0.356355,-0.133773,-0.907701,2.027713,-0.316665,-0.095340,-0.190144,0.170137,-0.559662,0.152175,0.198121,-0.694453,0.974621,-0.400820
4.0051,-0.175143,0.325260,-0.301501,-0.297749,0.344573,-0.143341,-0.983970,1.980054,-0.289557,-0.127278,-0.206091,0.185940,-0.592542,0.123376,0.239633,-0.576153,0.921690,-0.429171
4.0385,-0.084328,0.364260,-0.245502,-0.342368,0.308387,-0.149388,-1.043194,1.869854,-0.265529,-0.154031,-0.231209,0.190613,-0.632709,0.082443,0.276238,-0.466400,0.864573,-0.454213
4.0718,-0.008530,0.397186,-0.210169,-0.386845,0.270222,-0.164722,-1.083166,1.702712,-0.245927,-0.187843,-0.265121,0.214858,-0.676640,0.042068,0.299031,-0.386078,0.816932,-0.466375
4.1052,0.068098,0.426156,-0.154044,-0.432120,0.254712,-0.189703,-1.087692,1.485657,-0.202401,-0.221790,-0.291108,0.235860,-0.711629,0.006226,0.330478,-0.296020,0.749218,-0.475120
4.1386,0.138273,0.446501,-0.084920,-0.466599,0.244749,-0.251238,-1.054174,1.215113,-0.151477,-0.251652,-0.312000,0.247698,-0.741491,-0.025554,0.365652,-0.201395,0.664642,-0.479750
4.1720,0.195994,0.460296,-0.019301,-0.482842,0.232223,-0.358208,-0.983780,0.898330,-0.101353,-0.273967,-0.328880,0.247120,-0.773010,-0.054707,0.400423,-0.106171,0.567742,-0.469346
4.2053,0.212836,0.496771,-0.004074,-0.469387,0.227963,-0.468287,-1.068096,0.857933,-0.171460,-0.278869,-0.333375,0.240117,-0.794058,-0.065191,0.455228,-0.069776,0.601255,-0.521898
4.2387,0.231680,0.512550,0.026516,-0.449241,0.193957,-0.532674,-1.112016,0.794008,-0.204241,-0.287783,-0.340092,0.238246,-0.816678,-0.086587,0.485341,-0.038576,0.619544,-0.553530
4.2721,0.267813,0.447446,0.112362,-0.409861,0.155315,-0.555759,-0.836681,0.336619,-0.027906,-0.294936,-0.361132,0.252802,-0.825374,-0.155019,0.472970,0.047181,0.526494,-0.500318
4.3055,0.250988,0.450051,0.121659,-0.397455,0.158961,-0.553708,-0.839787,0.361450,-0.022364,-0.288921,-0.364451,0.237880,-0.835114,-0.177981,0.486581,0.047744,0.575533,-0.492703
4.3389,0.259334,0.405879,0.131761,-0.360454,0.170486,-0.533598,-0.760484,0.385263,-0.034347,-0.246500,-0.351590,0.214195,-0.822333,-0.239280,0.452891,0.077593,0.671922,-0.458802
4.3722,0.248591,0.368081,0.111805,-0.336743,0.176967,-0.521869,-0.673646,0.435827,-0.084593,-0.182698,-0.343407,0.191359,-0.790875,-0.308427,0.404963,0.067989,0.833153,-0.376187
4.4056,0.224614,0.313854,0.064802,-0.322181,0.168857,-0.530899,-0.559589,0.495339,-0.162564,-0.103471,-0.349018,0.163139,-0.734641,-0.362294,0.303223,-0.026194,1.110631,-0.279430
4.4390,0.170136,0.256354,0.002710,-0.325896,0.137087,-0.552183,-0.447720,0.439205,-0.185024,-0.060310,-0.371994,0.159676,-0.679843,-0.359445,0.198083,-0.246068,1.434861,-0.216461
4.4724,0.095325,0.237885,-0.047882,-0.357837,0.118397,-0.549454,-0.383960,0.365195,-0.182076,-0.029785,-0.353602,0.137294,-0.656840,-0.297468,0.143541,-0.455436,1.652464,-0.163242
4.5057,-0.003647,0.244568,-0.119870,-0.381713,0.099288,-0.530387,-0.340990,0.275519,-0.157940,-0.003023,-0.330443,0.125947,-0.638979,-0.213900,0.120058,-0.657665,1.794494,-0.163076
4.5391,-0.112805,0.234954,-0.208996,-0.392244,0.072822,-0.510240,-0.286062,0.209059,-0.144833,0.045028,-0.313431,0.108566,-0.625582,-0.165467,0.090143,-0.813642,1.871095,-0.151101
4.5725,-0.202669,0.205506,-0.280032,-0.409779,0.046167,-0.501212,-0.250741,0.246069,-0.182970,0.100114,-0.311176,0.097196,-0.605557,-0.143144,0.032069,-0.914763,1.887692,-0.155256
4.6059,-0.300560,0.171757,-0.368108,-0.419474,0.028701,-0.483395,-0.230881,0.297487,-0.220645,0.149054,-0.301670,0.092594,-0.585968,-0.110514,-0.022458,-0.993108,1.842442,-0.171978
4.6392,-0.390238,0.140333,-0.435015,-0.423112,0.018951,-0.457495,-0.219132,0.365865,-0.269482,0.196709,-0.282782,0.077254,-0.569225,-0.074881,-0.082238,-1.040340,1.744782,-0.178646
4.6726,-0.480716,0.098347,-0.503627,-0.415189,0.018803,-0.434636,-0.201886,0.432032,-0.316625,0.233525,-0.256186,0.054612,-0.549335,-0.051908,-0.113113,-1.052781,1.587449,-0.184475
4.7060,-0.569189,0.050499,-0.560899,-0.403659,0.006063,-0.422839,-0.175053,0.446411,-0.345491,0.248118,-0.241690,0.046306,-0.520851,-0.040220,-0.130325,-1.055759,1.389580,-0.167373
4.7394,-0.636361,0.016208,-0.575091,-0.409932,-0.011453,-0.408652,-0.152190,0.447930,-0.357020,0.241030,-0.240505,0.054790,-0.491104,-0.027580,-0.134836,-1.047997,1.155565,-0.127422
4.7727,-0.671185,0.011293,-0.568028,-0.441638,-0.027356,-0.401243,-0.122745,0.434500,-0.354064,0.216569,-0.244898,0.065686,-0.465342,-0.002786,-0.118764,-1.012074,0.883898,-0.078947
4.8061,-0.691730,0.010697,-0.550326,-0.465767,-0.033991,-0.399388,-0.094569,0.428593,-0.374700,0.184289,-0.257832,0.094190,-0.453074,0.035987,-0.048572,-0.963891,0.626720,-0.032294
4.8395,-0.697311,0.010222,-0.531648,-0.483403,-0.039722,-0.411008,-0.061276,0.430330,-0.394296,0.147845,-0.278748,0.125900,-0.448667,0.064468,-0.014522,-0.907977,0.435994,-0.012787
4.8729,-0.696019,0.006584,-0.514637,-0.494731,-0.056813,-0.417114,-0.070057,0.505607,-0.419937,0.118471,-0.310803,0.132237,-0.460436,0.073807,0.008715,-0.931626,0.476892,-0.031465
4.9062,-0.674257,0.010563,-0.507203,-0.488315,-0.048094,-0.395528,-0.071408,0.613254,-0.437895,0.093028,-0.313068,0.132016,-0.470179,0.087034,-0.049446,-0.928864,0.568428,-0.040519
4.9396,-0.630230,0.015003,-0.493291,-0.463528,-0.027716,-0.380307,-0.087673,0.759450,-0.434359,0.070310,-0.306781,0.123347,-0.474885,0.081403,-0.106628,-0.953290,0.693325,-0.045388
4.9730,-0.578803,0.017948,-0.469923,-0.431679,0.000191,-0.379360,-0.124097,0.933281,-0.374776,0.049536,-0.312775,0.120857,-0.480829,0.067565,-0.085426,-0.974964,0.837368,-0.096944
5.0064,-0.502226,0.027836,-0.473391,-0.345911,0.047346,-0.333377,-0.225582,1.233699,-0.307160,0.031389,-0.288007,0.131679,-0.485120,0.075746,-0.044875,-0.963063,0.988818,-0.200377
5.0397,-0.475037,0.067421,-0.503289,-0.259840,0.105245,-0.289808,-0.456578,1.567947,-0.227053,-0.027920,-0.260389,0.143232,-0.508280,0.094020,0.003262,-0.957561,1.007727,-0.242504
5.0731,-0.427604,0.117931,-0.493467,-0.254797,0.130744,-0.265965,-0.639576,1.765793,-0.232805,-0.077883,-0.260909,0.152053,-0.542195,0.084344,0.050160,-0.929914,1.008212,-0.292171
5.1065,-0.352221,0.190661,-0.454855,-0.266284,0.177902,-0.214225,-0.794558,1.894250,-0.274123,-0.116008,-0.244024,0.159076,-0.569124,0.099301,0.106844,-0.864309,1.000848,-0.339849
5.1399,-0.248825,0.269893,-0.388117,-0.292976,0.242541,-0.168276,-0.900699,1.943561,-0.293590,-0.144194,-0.220333,0.167949,-0.580883,0.113021,0.170985,-0.752074,0.972405,-0.386308
5.1732,-0.142760,0.332228,-0.313717,-0.321826,0.294995,-0.142992,-0.969203,1.912732,-0.307901,-0.161491,-0.203754,0.169575,-0.593922,0.107136,0.229388,-0.602968,0.905432,-0.430155
5.2066,-0.055612,0.374459,-0.237974,-0.348745,0.304509,-0.138529,-1.026528,1.816498,-0.306981,-0.173903,-0.203730,0.163774,-0.616960,0.080520,0.280675,-0.460441,0.827049,-0.454214
5.2400,0.014501,0.398509,-0.165976,-0.376285,0.274890,-0.166858,-1.060037,1.649078,-0.265039,-0.196827,-0.219853,0.168194,-0.642186,0.038622,0.303383,-0.359232,0.772457,-0.471526
5.2734,0.070940,0.414989,-0.098088,-0.396248,0.235277,-0.226200,-1.066826,1.416469,-0.211427,-0.226191,-0.241936,0.184295,-0.673293,-0.004508,0.321268,-0.287346,0.726103,-0.488248
5.3067,0.120942,0.429385,-0.035000,-0.417350,0.198800,-0.273774,-1.032841,1.135698,-0.158600,-0.243708,-0.257593,0.194200,-0.708361,-0.046415,0.349288,-0.192015,0.653071,-0.499689
5.3401,0.157666,0.441684,0.020177,-0.429385,0.158966,-0.355895,-0.973761,0.808838,-0.087358,-0.263541,-0.268399,0.199854,-0.745148,-0.077692,0.377949,-0.117250,0.581227,-0.500473
5.3735,0.177899,0.451247,0.072052,-0.434766,0.112174,-0.428592,-0.890638,0.459886,-0.008412,-0.278091,-0.277188,0.198151,-0.777205,-0.106348,0.417382,-0.048136,0.519020,-0.500070
5.4069,0.172691,0.470804,0.087653,-0.426958,0.082316,-0.461077,-0.955859,0.421692,-0.028015,-0.289377,-0.281565,0.189670,-0.798949,-0.120765,0.457133,-0.038092,0.563530,-0.536399
5.4403,0.168967,0.468060,0.115801,-0.415736,0.073568,-0.457115,-0.963261,0.412217,-0.025566,-0.300057,-0.281400,0.181777,-0.816979,-0.141520,0.473228,-0.026849,0.608593,-0.556839
5.4736,0.198074,0.427052,0.159922,-0.390532,0.101260,-0.458036,-0.868972,0.399986,-0.032232,-0.284988,-0.267275,0.178804,-0.814279,-0.183546,0.455605,0.033915,0.649947,-0.554483
5.5070,0.207942,0.385816,0.174619,-0.369209,0.108946,-0.453897,-0.794513,0.420721,-0.034574,-0.248124,-0.260284,0.171021,-0.796588,-0.246677,0.425401,0.077712,0.725491,-0.520233
5.5404,0.202700,0.340156,0.155628,-0.347254,0.115255,-0.453233,-0.715680,0.481104,-0.071424,-0.189204,-0.257489,0.151683,-0.764634,-0.311688,0.373304,0.077776,0.870888,-0.437685
5.5738,0.180926,0.286382,0.097971,-0.323928,0.107620,-0.460349,-0.626951,0.553597,-0.149109,-0.116246,-0.268025,0.129589,-0.715433,-0.360478,0.292152,-0.008211,1.125264,-0.339027
5.6071,0.123974,0.225717,0.033312,-0.313653,0.080657,-0.488234,-0.538964,0.535981,-0.189217,-0.071645,-0.295948,0.122017,-0.663093,-0.378479,0.207056,-0.209152,1.438732,-0.255886
5.6405,0.054771,0.197335,-0.026285,-0.334087,0.062730,-0.500601,-0.472150,0.475505,-0.205045,-0.041169,-0.304025,0.121021,-0.636616,-0.336740,0.145052,-0.420732,1.668590,-0.209647
5.6739,-0.039365,0.193812,-0.110609,-0.349881,0.054947,-0.485482,-0.419728,0.382816,-0.188861,-0.024212,-0.294645,0.124478,-0.607716,-0.250545,0.116505,-0.629602,1.816645,-0.211970
5.7073,-0.142165,0.186974,-0.223291,-0.357884,0.039122,-0.461927,-0.354815,0.294989,-0.172238,0.008475,-0.290937,0.118634,-0.587336,-0.192726,0.088724,-0.802509,1.895507,-0.188541
5.7406,-0.239669,0.160281,-0.331038,-0.362800,0.018060,-0.460348,-0.282580,0.255003,-0.174246,0.058080,-0.301172,0.107101,-0.571908,-0.175614,0.047233,-0.925260,1.916222,-0.179593
5.7740,-0.319926,0.145011,-0.400562,-0.386421,0.024152,-0.458117,-0.247292,0.302588,-0.221033,0.109223,-0.299265,0.092265,-0.560651,-0.131014,-0.000291,-1.007498,1.871164,-0.181695
5.8074,-0.401534,0.126862,-0.483280,-0.404000,0.037850,-0.460985,-0.215798,0.363386,-0.284756,0.159479,-0.285953,0.073539,-0.551470,-0.094735,-0.044846,-1.055428,1.773317,-0.196051
5.8408,-0.488670,0.094202,-0.576735,-0.396047,0.034223,-0.433933,-0.189444,0.415939,-0.319146,0.206382,-0.272469,0.062812,-0.547831,-0.079574,-0.073628,-1.068069,1.618670,-0.184100
5.8741,-0.567787,0.058028,-0.634811,-0.390770,0.029266,-0.423659,-0.161293,0.447236,-0.349459,0.238495,-0.270983,0.060214,-0.548516,-0.068591,-0.107254,-1.067805,1.427056,-0.174799
5.9075,-0.631124,0.032097,-0.660332,-0.397747,0.023634,-0.416141,-0.124023,0.445364,-0.377214,0.251937,-0.277242,0.076150,-0.543804,-0.065297,-0.098903,-1.049031,1.191124,-0.150181
5.9409,-0.672137,0.023556,-0.660703,-0.423069,0.026795,-0.411145,-0.079502,0.423687,-0.391669,0.248102,-0.283626,0.097493,-0.537249,-0.045431,-0.054664,-1.004244,0.918973,-0.105831
5.9743,-0.698629,0.024576,-0.646905,-0.452982,0.033289,-0.424354,-0.032884,0.388790,-0.402036,0.229007,-0.293170,0.116475,-0.532243,-0.015659,-0.001211,-0.952496,0.649817,-0.059980
6.0076,-0.706481,0.026773,-0.626989,-0.473345,0.043886,-0.422474,0.013036,0.380822,-0.416450,0.205394,-0.299995,0.139565,-0.522047,0.017010,0.002999,-0.890724,0.452768,-0.035215
6.0410,-0.707004,0.033443,-0.616040,-0.485710,0.038022,-0.419250,0.014411,0.445839,-0.448796,0.185657,-0.321958,0.142506,-0.532002,0.029436,-0.008666,-0.917974,0.492787,-0.050199
6.0744,-0.683227,0.033044,-0.608353,-0.486130,0.067032,-0.375904,0.031953,0.547956,-0.483277,0.170991,-0.303613,0.135282,-0.531252,0.068188,-0.064894,-0.894290,0.582996,-0.081001
6.1078,-0.646259,0.045337,-0.599603,-0.477946,0.097784,-0.347341,0.037754,0.673480,-0.502882,0.154549,-0.300802,0.127893,-0.531875,0.084827,-0.119488,-0.903442,0.703404,-0.080895
6.1411,-0.583305,0.060585,-0.579520,-0.457090,0.137964,-0.335999,0.021595,0.851898,-0.464750,0.135222,-0.290658,0.118481,-0.528919,0.081774,-0.097875,-0.910262,0.846102,-0.124506
6.1745,-0.483447,0.080065,-0.544808,-0.402783,0.193458,-0.277246,-0.073952,1.164036,-0.401978,0.113502,-0.244268,0.105972,-0.509224,0.101859,-0.056939,-0.885727,0.992924,-0.228280
6.2079,-0.446865,0.134370,-0.524232,-0.339905,0.257521,-0.203741,-0.338551,1.550339,-0.325230,0.038808,-0.192882,0.131485,-0.496578,0.144435,0.013889,-0.880127,1.003997,-0.259910
6.2413,-0.397797,0.184540,-0.494787,-0.317543,0.300977,-0.145216,-0.554942,1.800491,-0.265157,-0.016961,-0.170631,0.151426,-0.513625,0.161914,0.080974,-0.836032,0.981162,-0.301344
6.2746,-0.347535,0.233411,-0.464627,-0.305534,0.330416,-0.117130,-0.738658,1.949003,-0.292219,-0.070136,-0.164675,0.169416,-0.532940,0.164784,0.150272,-0.787088,0.962905,-0.341629
6.3080,-0.274754,0.278055,-0.411637,-0.305620,0.332282,-0.108725,-0.876916,2.014552,-0.295565,-0.119125,-0.172742,0.182090,-0.538942,0.154955,0.193039,-0.721847,0.959080,-0.385955
6.3414,-0.188108,0.316162,-0.334648,-0.315033,0.315783,-0.107712,-0.968348,1.996058,-0.279877,-0.150710,-0.183544,0.171009,-0.556628,0.134895,0.230649,-0.622655,0.929210,-0.421168
6.3748,-0.096609,0.358575,-0.252615,-0.340151,0.308331,-0.108775,-1.032067,1.911628,-0.279055,-0.176236,-0.186900,0.154862,-0.589477,0.121933,0.272677,-0.514363,0.875538,-0.441559
6.4081,-0.023387,0.382510,-0.178320,-0.368414,0.262347,-0.101384,-1.081881,1.777682,-0.259875,-0.200564,-0.212383,0.144417,-0.626709,0.084740,0.300114,-0.432221,0.841962,-0.464026
6.4415,0.045043,0.405872,-0.100308,-0.398462,0.245351,-0.119346,-1.095415,1.586517,-0.236961,-0.227816,-0.232247,0.147902,-0.663523,0.053557,0.335534,-0.346438,0.797391,-0.483620
6.4749,0.101596,0.424149,-0.018247,-0.417157,0.228103,-0.171886,-1.072678,1.339948,-0.193935,-0.257627,-0.251634,0.150241,-0.694950,0.030761,0.355693,-0.269161,0.740407,-0.489593
6.5083,0.144055,0.428543,0.057531,-0.431049,0.189028,-0.268349,-1.008126,1.032614,-0.135231,-0.283906,-0.280531,0.153048,-0.719249,-0.009520,0.380285,-0.192399,0.676010,-0.497695
6.5417,0.154306,0.468817,0.080709,-0.419620,0.188448,-0.386162,-1.080794,0.986386,-0.193002,-0.291395,-0.286500,0.146987,-0.738495,-0.010775,0.427123,-0.156173,0.716231,-0.562682
6.5750,0.166354,0.497488,0.112324,-0.407917,0.167047,-0.505195,-1.118682,0.906541,-0.239121,-0.303128,-0.294983,0.139595,-0.758232,-0.020074,0.465491,-0.114943,0.726481,-0.602305
6.6084,0.206683,0.456420,0.185960,-0.422728,0.107879,-0.574189,-0.831532,0.337238,-0.055938,-0.331377,-0.323139,0.170509,-0.765097,-0.071560,0.470057,-0.002305,0.552478,-0.521496
6.6418,0.214488,0.442279,0.208969,-0.411503,0.121250,-0.561480,-0.667061,0.124249,0.047167,-0.325745,-0.320119,0.170371,-0.766752,-0.096825,0.468527,0.054046,0.540918,-0.507263
6.6752,0.201563,0.431035,0.211023,-0.397465,0.134752,-0.525914,-0.624305,0.114378,0.036006,-0.309340,-0.317099,0.161539,-0.770223,-0.118787,0.467886,0.059775,0.610011,-0.497117
6.7085,0.190813,0.406291,0.196164,-0.379260,0.153395,-0.522444,-0.564089,0.129558,0.041146,-0.272063,-0.306334,0.151195,-0.759554,-0.163627,0.451046,0.055972,0.729818,-0.448511
6.7419,0.172852,0.371167,0.154122,-0.360972,0.165606,-0.520903,-0.482372,0.161627,0.005692,-0.217772,-0.297495,0.141695,-0.736444,-0.222746,0.412627,0.001020,0.938267,-0.354652
6.7753,0.141827,0.325645,0.085783,-0.344062,0.168507,-0.530426,-0.398793,0.204343,-0.054652,-0.158733,-0.298125,0.144103,-0.698661,-0.256359,0.344543,-0.142252,1.240972,-0.260414
6.8087,0.074293,0.268854,0.013092,-0.338532,0.140757,-0.575183,-0.361604,0.208900,-0.093680,-0.148851,-0.319054,0.180000,-0.649335,-0.249683,0.250068,-0.418916,1.581566,-0.177964
6.8420,0.010884,0.253205,-0.059958,-0.352179,0.137358,-0.553729,-0.297214,0.227863,-0.151127,-0.075902,-0.310765,0.157904,-0.637534,-0.223280,0.198337,-0.535261,1.732762,-0.170959
6.8754,-0.088234,0.242804,-0.169648,-0.351630,0.127324,-0.535479,-0.237850,0.157580,-0.143421,-0.024241,-0.281153,0.133257,-0.625223,-0.156748,0.155735,-0.708337,1.847942,-0.180203
6.9088,-0.166416,0.212360,-0.242466,-0.359916,0.118838,-0.523052,-0.178183,0.159024,-0.169432,0.036463,-0.284467,0.131827,-0.602919,-0.129392,0.102630,-0.824496,1.900431,-0.176941
6.9422,-0.257019,0.173642,-0.330357,-0.366754,0.102232,-0.515020,-0.142870,0.188252,-0.201614,0.095333,-0.274496,0.128546,-0.582087,-0.111135,0.048318,-0.929675,1.902320,-0.172038
6.9755,-0.333778,0.139867,-0.398673,-0.385737,0.095436,-0.495027,-0.113742,0.244263,-0.239952,0.154904,-0.267505,0.119638,-0.560298,-0.081787,-0.008920,-0.984159,1.835078,-0.187703
7.0089,-0.409512,0.106799,-0.479835,-0.404407,0.094690,-0.478674,-0.097458,0.307987,-0.287208,0.202668,-0.250583,0.116486,-0.533099,-0.055894,-0.053858,-1.015897,1.713560,-0.201069
7.0423,-0.480259,0.074441,-0.548293,-0.421565,0.092295,-0.460941,-0.081365,0.372824,-0.331558,0.240999,-0.236012,0.116140,-0.509228,-0.038430,-0.084625,-1.020238,1.549337,-0.199310
7.0757,-0.544267,0.040918,-0.568420,-0.444716,0.078836,-0.438309,-0.077814,0.415033,-0.361424,0.262542,-0.227267,0.126699,-0.494715,-0.026908,-0.097295,-1.017877,1.341051,-0.173317
7.1090,-0.604309,0.021958,-0.585754,-0.461309,0.061159,-0.419450,-0.077548,0.443403,-0.381097,0.266800,-0.231519,0.141725,-0.472993,-0.018080,-0.091745,-1.002168,1.098920,-0.132753
7.1424,-0.623623,0.021801,-0.541723,-0.503016,0.063151,-0.411997,-0.059808,0.459521,-0.406152,0.259490,-0.234587,0.130199,-0.450616,0.004214,-0.053982,-0.958892,0.834675,-0.094149
7.1758,-0.642384,0.021942,-0.524730,-0.528859,0.063260,-0.409068,-0.045035,0.469019,-0.426195,0.227623,-0.243556,0.173987,-0.425766,0.029255,-0.016491,-0.909346,0.584255,-0.063139
7.2092,-0.648279,0.023953,-0.521732,-0.538987,0.070709,-0.396830,-0.028651,0.505345,-0.452292,0.199136,-0.249994,0.216928,-0.416505,0.053526,-0.005085,-0.858115,0.429074,-0.047112
7.2425,-0.645899,0.026563,-0.514522,-0.542865,0.065852,-0.380302,-0.044562,0.591378,-0.480622,0.174964,-0.270665,0.226869,-0.423945,0.061118,-0.020758,-0.883018,0.489961,-0.056850
7.2759,-0.618940,0.030002,-0.505310,-0.526697,0.079337,-0.337429,-0.044206,0.705582,-0.509191,0.149130,-0.260003,0.225956,-0.418767,0.084112,-0.072434,-0.880766,0.602762,-0.080826
7.3093,-0.579294,0.048608,-0.496558,-0.506630,0.105915,-0.308337,-0.051787,0.841311,-0.513626,0.124440,-0.261177,0.228005,-0.423347,0.092644,-0.105727,-0.902453,0.740228,-0.086200
7.3427,-0.517388,0.072693,-0.482493,-0.471164,0.154998,-0.276618,-0.080540,1.031825,-0.470488,0.098887,-0.249650,0.220878,-0.427742,0.098703,-0.075471,-0.905915,0.884832,-0.159887
7.3760,-0.423215,0.113838,-0.470691,-0.395516,0.209758,-0.192344,-0.204542,1.362419,-0.392237,0.072883,-0.189916,0.188190,-0.428879,0.132888,-0.022025,-0.874229,1.015916,-0.262770
7.4094,-0.407752,0.172869,-0.485920,-0.315728,0.280579,-0.138810,-0.482535,1.708491,-0.281000,0.008751,-0.137044,0.158251,-0.475267,0.166121,0.045768,-0.871759,1.003429,-0.279631
7.4428,-0.361745,0.228984,-0.463772,-0.297336,0.331501,-0.106738,-0.686901,1.916803,-0.236392,-0.030700,-0.117698,0.151345,-0.549721,0.177465,0.105930,-0.829558,0.983442,-0.314218
7.4762,-0.296529,0.286447,-0.428437,-0.293640,0.359806,-0.098275,-0.846746,2.030577,-0.272132,-0.071313,-0.115165,0.173198,-0.622197,0.182451,0.155432,-0.766121,0.960993,-0.352123
7.5096,-0.219442,0.336906,-0.364570,-0.304344,0.349621,-0.101829,-0.967111,2.061658,-0.261739,-0.104510,-0.121420,0.186830,-0.679367,0.170137,0.192100,-0.681112,0.933279,-0.387632
7.5429,-0.128062,0.373904,-0.282960,-0.334611,0.320570,-0.116427,-1.041771,2.016785,-0.240373,-0.126083,-0.133884,0.175201,-0.737441,0.140073,0.226607,-0.576862,0.897777,-0.422136
7.5763,-0.042411,0.405043,-0.206745,-0.368707,0.288096,-0.124065,-1.090025,1.909434,-0.234817,-0.145649,-0.152327,0.187155,-0.798169,0.103775,0.262882,-0.468907,0.849641,-0.450730
7.6097,0.025556,0.424089,-0.138401,-0.400348,0.255684,-0.151540,-1.115465,1.746696,-0.229954,-0.170636,-0.180054,0.201709,-0.858011,0.064424,0.284914,-0.393485,0.823767,-0.469184
7.6431,0.082992,0.447150,-0.085997,-0.424566,0.237111,-0.163958,-1.122174,1.543259,-0.181267,-0.199646,-0.199215,0.214298,-0.910815,0.036632,0.308766,-0.321618,0.784527,-0.479746
7.6764,0.134101,0.467897,-0.041621,-0.435780,0.228374,-0.217986,-1.079525,1.273787,-0.155974,-0.224578,-0.213471,0.222437,-0.948313,0.006324,0.337333,-0.237896,0.727077,-0.488599
7.7098,0.178452,0.473826,0.009867,-0.443251,0.217201,-0.341442,-0.989751,0.949236,-0.114741,-0.244964,-0.223303,0.224059,-0.969960,-0.026700,0.362250,-0.147925,0.648671,-0.490873
7.7432,0.186749,0.508532,0.026092,-0.430061,0.216624,-0.458593,-1.064562,0.907734,-0.189368,-0.245586,-0.224264,0.217056,-0.987339,-0.032998,0.410458,-0.111939,0.688649,-0.545355
7.7766,0.196555,0.523281,0.053033,-0.413039,0.188080,-0.535765,-1.102390,0.840630,-0.227808,-0.251443,-0.224638,0.210987,-1.001681,-0.049687,0.436184,-0.081314,0.710565,-0.565946
7.8099,0.213934,0.455407,0.122207,-0.390198,0.141589,-0.558124,-0.804840,0.316394,-0.018479,-0.268222,-0.231468,0.202612,-0.976431,-0.108388,0.423628,-0.004065,0.600469,-0.498846
7.8433,0.203441,0.438445,0.133337,-0.370920,0.160410,-0.535258,-0.751158,0.296533,-0.002720,-0.246779,-0.223149,0.183697,-0.968495,-0.131273,0.421448,0.011527,0.656576,-0.484053
7.8767,0.192436,0.407533,0.127593,-0.345941,0.176923,-0.526246,-0.684495,0.315378,-0.012105,-0.199015,-0.210509,0.157970,-0.936130,-0.176129,0.405177,0.026002,0.753923,-0.442043
7.9101,0.172888,0.365708,0.092798,-0.325858,0.182977,-0.521703,-0.604259,0.363772,-0.068978,-0.139821,-0.207413,0.139601,-0.880878,-0.235814,0.361769,-0.004392,0.928717,-0.357093
7.9434,0.139554,0.311834,0.035204,-0.309376,0.181251,-0.526222,-0.518395,0.427389,-0.148015,-0.075636,-0.221845,0.132306,-0.796239,-0.278593,0.290025,-0.117053,1.207783,-0.271770
7.9768,0.074793,0.246527,-0.035515,-0.304451,0.148829,-0.551228,-0.440935,0.409225,-0.186079,-0.056502,-0.253817,0.143488,-0.689575,-0.285644,0.193856,-0.343297,1.522662,-0.189469
8.0102,-0.009662,0.225311,-0.122572,-0.306937,0.132744,-0.553971,-0.379162,0.352151,-0.201344,-0.029979,-0.261455,0.145830,-0.628910,-0.239771,0.142191,-0.536508,1.719967,-0.173037
8.0436,-0.110078,0.214466,-0.219444,-0.317933,0.121723,-0.533611,-0.305544,0.254918,-0.186525,0.011273,-0.251137,0.124270,-0.590109,-0.175475,0.116108,-0.703847,1.833448,-0.175900
8.0769,-0.211037,0.186397,-0.317427,-0.337610,0.095325,-0.525165,-0.226645,0.164218,-0.165574,0.063353,-0.256902,0.103648,-0.558894,-0.141840,0.074091,-0.856519,1.899374,-0.169570
8.1103,-0.290650,0.158730,-0.396120,-0.367965,0.085183,-0.519551,-0.179613,0.191252,-0.201077,0.125169,-0.263211,0.084881,-0.537145,-0.110714,0.015971,-0.952104,1.902618,-0.174444
8.1437,-0.368540,0.131840,-0.473289,-0.397739,0.080178,-0.497290,-0.151365,0.237060,-0.237457,0.186367,-0.257076,0.066398,-0.522269,-0.067590,-0.042202,-1.023193,1.846598,-0.181239
8.1771,-0.434483,0.103423,-0.525699,-0.432352,0.078554,-0.470909,-0.128773,0.295483,-0.282225,0.241777,-0.246662,0.053035,-0.513009,-0.028920,-0.102433,-1.054800,1.735586,-0.194184
8.2104,-0.487203,0.075249,-0.571950,-0.467890,0.086799,-0.449531,-0.104280,0.362360,-0.329290,0.289490,-0.236114,0.050703,-0.510099,-0.002359,-0.148010,-1.053744,1.577778,-0.197428
8.2438,-0.538837,0.044749,-0.598929,-0.496291,0.084253,-0.434930,-0.079995,0.391925,-0.358592,0.318729,-0.230756,0.050742,-0.512333,0.009634,-0.165050,-1.048293,1.380374,-0.177105
8.2772,-0.578716,0.023150,-0.595387,-0.527078,0.071834,-0.417759,-0.063750,0.408701,-0.375745,0.328957,-0.232883,0.052454,-0.510116,0.021740,-0.167711,-1.029329,1.152896,-0.153544
8.3106,-0.593676,0.023740,-0.589713,-0.563519,0.087389,-0.395815,-0.033936,0.427730,-0.414530,0.324536,-0.229418,0.060973,-0.499735,0.055305,-0.139385,-0.978983,0.901425,-0.119658
8.3439,-0.600828,0.024772,-0.575856,-0.586485,0.095095,-0.393250,0.003916,0.424902,-0.435057,0.307952,-0.233347,0.065271,-0.488400,0.086193,-0.109736,-0.922874,0.670022,-0.099040
8.3773,-0.598739,0.024877,-0.573663,-0.596622,0.098754,-0.389718,0.017939,0.486792,-0.481667,0.290737,-0.250245,0.071354,-0.487157,0.100557,-0.125631,-0.939766,0.640170,-0.138541
8.4107,-0.586206,0.032321,-0.572348,-0.598460,0.108215,-0.373440,0.018429,0.567926,-0.520251,0.266970,-0.263487,0.077621,-0.488845,0.114667,-0.144809,-0.947066,0.684209,-0.149576
8.4441,-0.558995,0.044723,-0.571752,-0.586394,0.119312,-0.345569,0.013156,0.673536,-0.545356,0.238196,-0.265325,0.081493,-0.492246,0.123541,-0.160887,-0.940656,0.757558,-0.158412
8.4774,-0.513982,0.064587,-0.570514,-0.554612,0.148096,-0.330832,-0.000828,0.814410,-0.537280,0.204148,-0.262216,0.085666,-0.490956,0.120201,-0.129358,-0.946725,0.856558,-0.156334
8.5108,-0.453892,0.090352,-0.567552,-0.505942,0.199640,-0.310004,-0.038252,1.008242,-0.469246,0.167977,-0.251282,0.093267,-0.487515,0.130498,-0.109014,-0.932154,0.960028,-0.215778
8.5442,-0.406617,0.136023,-0.549775,-0.349526,0.267844,-0.217079,-0.262314,1.387064,-0.386300,0.068349,-0.161855,0.134161,-0.440656,0.186941,-0.034227,-0.883212,0.951345,-0.232324
8.5776,-0.345876,0.194427,-0.510494,-0.316433,0.344079,-0.183142,-0.454491,1.668092,-0.281403,-0.001079,-0.128484,0.188593,-0.472401,0.218566,0.024680,-0.843840,0.941533,-0.268043
8.6110,-0.297529,0.262880,-0.482438,-0.288939,0.375791,-0.144911,-0.649840,1.870738,-0.282118,-0.056525,-0.110201,0.221773,-0.533063,0.232576,0.082317,-0.801761,0.921478,-0.303196
8.6443,-0.239239,0.315468,-0.415880,-0.288612,0.368207,-0.144806,-0.820806,1.978984,-0.295238,-0.107579,-0.112763,0.243829,-0.593697,0.227030,0.128319,-0.756874,0.914236,-0.343820
8.6777,-0.164321,0.359075,-0.317793,-0.301993,0.338463,-0.142486,-0.956950,2.003707,-0.269807,-0.144043,-0.121408,0.255092,-0.653975,0.206853,0.171533,-0.682717,0.896086,-0.390840
8.7111,-0.075569,0.389246,-0.216401,-0.331601,0.295573,-0.125069,-1.041069,1.943434,-0.246443,-0.166796,-0.134477,0.258354,-0.719648,0.177167,0.203694,-0.582909,0.861037,-0.420803
8.7445,-0.002881,0.418046,-0.141289,-0.355533,0.273337,-0.113699,-1.091896,1.824389,-0.236007,-0.186048,-0.144030,0.267585,-0.781624,0.152885,0.238179,-0.476250,0.809619,-0.445163
8.7778,0.063875,0.442320,-0.076680,-0.382894,0.257141,-0.118830,-1.101743,1.642876,-0.223400,-0.208773,-0.153892,0.277824,-0.840188,0.125875,0.272526,-0.373690,0.750227,-0.457428
8.8112,0.115561,0.461972,-0.015049,-0.409318,0.241536,-0.155171,-1.088753,1.403368,-0.193566,-0.238599,-0.165101,0.287878,-0.895172,0.100940,0.302792,-0.288268,0.684303,-0.462204
8.8446,0.160884,0.469227,0.051089,-0.431988,0.212359,-0.239473,-1.030047,1.095696,-0.134529,-0.264870,-0.179272,0.294116,-0.942248,0.071239,0.326219,-0.200508,0.603757,-0.462016
8.8780,0.186549,0.469899,0.115475,-0.444354,0.153505,-0.342017,-0.947479,0.722302,-0.054695,-0.291275,-0.199544,0.297563,-0.979665,0.039443,0.354722,-0.130092,0.522523,-0.456183
8.9113,0.184904,0.501210,0.139300,-0.433836,0.121557,-0.410294,-1.034850,0.674256,-0.108363,-0.300629,-0.203495,0.291021,-1.004127,0.040782,0.397388,-0.114458,0.569756,-0.506431
8.9447,0.215434,0.453473,0.279319,-0.445923,0.058144,-0.459117,-0.793824,0.125538,0.081114,-0.328334,-0.213321,0.285097,-1.007240,0.003075,0.414217,-0.050381,0.496698,-0.485805
8.9781,0.184655,0.451760,0.315429,-0.441048,0.051390,-0.460766,-0.794163,0.108026,0.118604,-0.331358,-0.217511,0.269453,-1.021305,-0.003808,0.436581,-0.059821,0.545337,-0.501953
9.0115,0.182319,0.418642,0.360784,-0.421360,0.061461,-0.419249,-0.738562,0.115454,0.103792,-0.312876,-0.211516,0.255552,-1.009073,-0.031728,0.430118,-0.038787,0.618760,-0.508364
9.0448,0.189182,0.385299,0.372036,-0.398501,0.079659,-0.394863,-0.670915,0.145076,0.085706,-0.269831,-0.198144,0.246969,-0.959068,-0.079607,0.420926,-0.006377,0.718840,-0.480935
9.0782,0.171517,0.354154,0.336779,-0.381856,0.084653,-0.398231,-0.612598,0.191900,0.064887,-0.220658,-0.189235,0.236512,-0.887653,-0.129222,0.394828,-0.044831,0.896023,-0.391089
9.1116,0.136243,0.314544,0.261476,-0.360085,0.074700,-0.400166,-0.559886,0.256798,0.007949,-0.176641,-0.193452,0.229819,-0.785351,-0.177300,0.349277,-0.169217,1.182027,-0.290345
9.1450,0.078147,0.278121,0.154452,-0.349988,0.052600,-0.417113,-0.522438,0.330552,-0.066950,-0.140266,-0.215438,0.222846,-0.684726,-0.213088,0.280294,-0.344676,1.476476,-0.192721
9.1783,-0.004324,0.237505,0.062969,-0.353093,0.034436,-0.435614,-0.490504,0.358897,-0.124732,-0.120077,-0.234814,0.222702,-0.591806,-0.211146,0.222706,-0.541735,1.707198,-0.166718
9.2117,-0.089138,0.218731,-0.059091,-0.360795,0.027984,-0.443427,-0.421582,0.331471,-0.155451,-0.078905,-0.246976,0.214931,-0.536291,-0.184819,0.162895,-0.705075,1.842600,-0.194765
9.2451,-0.185662,0.187730,-0.190379,-0.357907,0.007022,-0.451179,-0.322551,0.269796,-0.165131,-0.019202,-0.274298,0.195808,-0.504417,-0.183891,0.108442,-0.839020,1.915103,-0.200882
9.2785,-0.271572,0.156488,-0.285394,-0.374027,-0.005873,-0.454731,-0.272522,0.303513,-0.204628,0.049442,-0.294877,0.169450,-0.485834,-0.171576,0.053365,-0.947492,1.930395,-0.205430
9.3118,-0.355390,0.132561,-0.369954,-0.392524,0.003359,-0.442625,-0.239721,0.354342,-0.248370,0.117539,-0.288654,0.132321,-0.477726,-0.113880,0.001847,-1.021105,1.870151,-0.202686
9.3452,-0.427403,0.109544,-0.456475,-0.412755,0.028472,-0.426347,-0.203376,0.422943,-0.307000,0.185270,-0.272448,0.093106,-0.479947,-0.060963,-0.051685,-1.050251,1.749254,-0.201431
9.3786,-0.499002,0.073706,-0.532435,-0.422207,0.034402,-0.413300,-0.169335,0.475530,-0.348280,0.247139,-0.264214,0.069530,-0.485979,-0.034794,-0.094080,-1.053046,1.579597,-0.189447
9.4120,-0.567266,0.031922,-0.574329,-0.431940,0.013682,-0.372897,-0.149351,0.502015,-0.354973,0.297936,-0.257428,0.049195,-0.505559,-0.020353,-0.123999,-1.034688,1.356383,-0.172025
9.4453,-0.599719,0.019389,-0.572715,-0.460364,0.035424,-0.377252,-0.101413,0.512002,-0.395221,0.312661,-0.266961,0.069630,-0.501009,0.005539,-0.130174,-0.993456,1.093093,-0.139317
9.4787,-0.619054,0.019199,-0.556809,-0.501558,0.045667,-0.371172,-0.057752,0.496171,-0.413698,0.308807,-0.274539,0.099202,-0.500828,0.029834,-0.100047,-0.936827,0.805052,-0.109648
9.5121,-0.639130,0.019275,-0.548489,-0.531757,0.049352,-0.373471,-0.035437,0.496895,-0.426796,0.288144,-0.286386,0.122240,-0.498160,0.052596,-0.078791,-0.886636,0.555193,-0.073949
9.5455,-0.645347,0.017147,-0.541978,-0.543652,0.051311,-0.369996,-0.026068,0.563068,-0.462033,0.271419,-0.302796,0.132422,-0.498647,0.068407,-0.098640,-0.906528,0.550245,-0.100683
9.5788,-0.639451,0.017306,-0.540736,-0.545668,0.053980,-0.338972,-0.029345,0.650787,-0.487448,0.250317,-0.310961,0.138848,-0.498411,0.091375,-0.136123,-0.911012,0.622665,-0.105682
9.6122,-0.614020,0.018833,-0.538950,-0.533761,0.065937,-0.296804,-0.030002,0.765648,-0.502425,0.223814,-0.305602,0.145074,-0.495451,0.113066,-0.174717,-0.907338,0.723200,-0.118252
9.6456,-0.565499,0.023378,-0.534416,-0.505383,0.098088,-0.285591,-0.036256,0.919370,-0.471653,0.192420,-0.299049,0.154413,-0.492905,0.109856,-0.150300,-0.914482,0.855611,-0.126624
9.6790,-0.499801,0.039900,-0.525311,-0.463193,0.134639,-0.253842,-0.077743,1.132408,-0.384266,0.161618,-0.285730,0.163718,-0.491631,0.122861,-0.120481,-0.897209,0.989909,-0.201638
9.7124,-0.450223,0.087869,-0.551240,-0.338000,0.196893,-0.164602,-0.305303,1.523002,-0.317991,0.076186,-0.196661,0.185451,-0.462069,0.168327,-0.043442,-0.882355,1.045631,-0.255384
9.7457,-0.413689,0.141257,-0.556108,-0.297377,0.270456,-0.135253,-0.507250,1.784368,-0.237208,0.013037,-0.167905,0.193808,-0.497580,0.183345,0.014408,-0.862624,1.059812,-0.298260
9.7791,-0.365338,0.213918,-0.544170,-0.275550,0.341080,-0.103485,-0.698451,1.966165,-0.283547,-0.047388,-0.139081,0.217131,-0.544170,0.204536,0.079972,-0.823614,1.047261,-0.338384
9.8125,-0.290417,0.268079,-0.489310,-0.283181,0.344337,-0.095329,-0.834376,2.038460,-0.294337,-0.100866,-0.136363,0.255953,-0.579288,0.192994,0.124767,-0.751090,1.041193,-0.385371
9.8459,-0.196252,0.318481,-0.390520,-0.300181,0.318563,-0.100667,-0.920267,2.015769,-0.275568,-0.145316,-0.142554,0.270966,-0.606743,0.172459,0.159495,-0.647364,1.007610,-0.416499
9.8792,-0.100483,0.362887,-0.275635,-0.335401,0.295302,-0.109026,-0.981994,1.932676,-0.282110,-0.175633,-0.148647,0.267361,-0.639507,0.142180,0.207249,-0.532211,0.962214,-0.449910
9.9126,-0.011630,0.395186,-0.168283,-0.381381,0.271266,-0.129411,-1.023393,1.791338,-0.277250,-0.211049,-0.164203,0.275716,-0.680348,0.105873,0.242037,-0.427803,0.904013,-0.466547
9.9460,0.057991,0.427674,-0.082169,-0.409956,0.253251,-0.141924,-1.040654,1.598776,-0.256059,-0.246153,-0.183334,0.295088,-0.724321,0.077008,0.275228,-0.332694,0.841454,-0.474471
9.9794,0.116760,0.453172,-0.016835,-0.429089,0.237808,-0.188609,-1.025499,1.349997,-0.213478,-0.282022,-0.201022,0.314427,-0.764190,0.046866,0.302400,-0.244977,0.768819,-0.474292
10.0127,0.159404,0.474443,0.031232,-0.423829,0.217236,-0.272954,-0.969152,1.043160,-0.155955,-0.307930,-0.220284,0.323900,-0.803438,0.012647,0.330374,-0.152048,0.679216,-0.466917
10.0461,0.183785,0.489912,0.072119,-0.420298,0.181774,-0.389253,-0.899283,0.701826,-0.088771,-0.326826,-0.236788,0.311640,-0.847497,-0.021735,0.365273,-0.075786,0.590408,-0.455319
10.0795,0.184522,0.524755,0.082697,-0.409127,0.159868,-0.479850,-0.991982,0.667054,-0.145666,-0.332757,-0.242197,0.296751,-0.874388,-0.030798,0.409234,-0.061296,0.627429,-0.498719
10.1129,0.186044,0.539777,0.102547,-0.390905,0.127527,-0.519127,-1.033914,0.622783,-0.157170,-0.343079,-0.246215,0.279804,-0.901908,-0.050768,0.426252,-0.052483,0.660145,-0.521789
10.1462,0.213490,0.491260,0.145218,-0.360373,0.146670,-0.527518,-0.768251,0.296713,-0.017732,-0.325881,-0.244225,0.265083,-0.914304,-0.101452,0.407633,0.038312,0.604584,-0.480608
10.1796,0.188721,0.496145,0.139542,-0.351841,0.158120,-0.524337,-0.764862,0.325769,-0.040169,-0.309142,-0.247904,0.248123,-0.922234,-0.123806,0.421486,0.028803,0.675411,-0.458109
10.2130,0.185343,0.443256,0.125179,-0.330617,0.170048,-0.532579,-0.682450,0.368808,-0.052941,-0.248687,-0.236599,0.226934,-0.898937,-0.186424,0.382305,0.037561,0.814325,-0.403712
10.2464,0.175568,0.385944,0.094711,-0.314672,0.192400,-0.527571,-0.575993,0.413115,-0.107464,-0.175001,-0.233958,0.206565,-0.852253,-0.232098,0.323721,-0.014056,1.028433,-0.310416
10.2797,0.139752,0.318307,0.038946,-0.311176,0.185886,-0.544181,-0.461293,0.386012,-0.142230,-0.128338,-0.250370,0.200647,-0.777133,-0.257253,0.244361,-0.188343,1.337299,-0.215339
10.3131,0.065462,0.283574,-0.042708,-0.312223,0.169663,-0.545881,-0.407033,0.369984,-0.168132,-0.089402,-0.256371,0.182482,-0.723186,-0.229193,0.178138,-0.392260,1.584860,-0.122798
10.3465,-0.020926,0.269564,-0.142187,-0.322022,0.161753,-0.538192,-0.348388,0.311406,-0.176562,-0.048691,-0.247558,0.159171,-0.674389,-0.148848,0.116262,-0.584584,1.752447,-0.127180
10.3799,-0.106343,0.249829,-0.238344,-0.346321,0.161532,-0.526847,-0.254229,0.238323,-0.178455,0.012731,-0.238679,0.125823,-0.631486,-0.098908,0.065571,-0.717951,1.840225,-0.144811
10.4132,-0.188382,0.215024,-0.313184,-0.373806,0.145048,-0.531667,-0.199793,0.266826,-0.222466,0.084775,-0.250830,0.095968,-0.595207,-0.090044,0.013438,-0.819283,1.880279,-0.155291
10.4466,-0.291703,0.163425,-0.423459,-0.388890,0.113447,-0.519165,-0.173979,0.311814,-0.251632,0.154757,-0.260365,0.063529,-0.552080,-0.074947,-0.037265,-0.907874,1.861680,-0.171986
10.4800,-0.376856,0.120564,-0.503731,-0.415178,0.099034,-0.499947,-0.153351,0.375048,-0.291481,0.219088,-0.260120,0.035703,-0.519092,-0.046776,-0.084312,-0.960302,1.783845,-0.190670
10.5134,-0.463350,0.071513,-0.596413,-0.435416,0.090832,-0.477184,-0.124486,0.421493,-0.329305,0.278851,-0.246916,0.012319,-0.490738,-0.024660,-0.119423,-0.984119,1.652705,-0.193512
10.5467,-0.546064,0.025647,-0.657409,-0.455750,0.067963,-0.457231,-0.080964,0.412310,-0.347975,0.321413,-0.243067,0.002670,-0.472399,-0.015699,-0.148522,-0.995898,1.482279,-0.192064
10.5801,-0.601615,0.011532,-0.682772,-0.502136,0.049741,-0.435929,-0.063242,0.414865,-0.357749,0.338734,-0.241145,0.009684,-0.460544,-0.002016,-0.156634,-1.008938,1.277056,-0.158856
10.6135,-0.634113,0.005959,-0.660659,-0.554960,0.034409,-0.422975,-0.039076,0.416445,-0.375526,0.340488,-0.249968,0.029157,-0.450932,0.009515,-0.136405,-0.994096,1.037715,-0.110731
10.6469,-0.653060,0.004205,-0.640005,-0.598918,0.019555,-0.420530,-0.012555,0.401740,-0.379956,0.320671,-0.267832,0.050525,-0.443366,0.025324,-0.089971,-0.958276,0.770010,-0.068054
10.6802,-0.659920,0.004565,-0.619382,-0.624441,0.009480,-0.426910,0.015706,0.397847,-0.383134,0.287267,-0.288075,0.079253,-0.437226,0.049125,-0.046993,-0.907587,0.535702,-0.040632
10.7136,-0.654686,0.004008,-0.609492,-0.631047,0.002866,-0.426938,0.024154,0.462084,-0.413658,0.260527,-0.312189,0.085672,-0.445102,0.065485,-0.039180,-0.930465,0.536421,-0.064288
10.7470,-0.633182,0.007935,-0.606133,-0.618656,0.020464,-0.398935,0.031191,0.561226,-0.435973,0.231783,-0.313325,0.087561,-0.452086,0.094360,-0.096265,-0.924412,0.604556,-0.067246
10.7804,-0.593416,0.014751,-0.611581,-0.580799,0.040464,-0.361195,0.034175,0.698292,-0.448951,0.204001,-0.301737,0.082069,-0.453960,0.123328,-0.177024,-0.915120,0.717239,-0.078511
10.8138,-0.538660,0.020868,-0.601685,-0.541412,0.076497,-0.352673,0.018422,0.866719,-0.408168,0.173112,-0.303294,0.074939,-0.461637,0.114794,-0.167786,-0.930354,0.862412,-0.098857
10.8471,-0.464609,0.031184,-0.608748,-0.429108,0.136420,-0.287084,-0.079132,1.180938,-0.330854,0.141725,-0.256104,0.044522,-0.470384,0.140024,-0.109828,-0.911708,1.012401,-0.194648
10.8805,-0.463502,0.059986,-0.647796,-0.280849,0.183594,-0.230110,-0.331688,1.551332,-0.249083,0.071478,-0.214013,0.015400,-0.506683,0.157098,-0.048198,-0.929553,1.063306,-0.242020
10.9139,-0.430788,0.118982,-0.640252,-0.230941,0.241791,-0.201946,-0.555107,1.809838,-0.189343,-0.004057,-0.196895,0.025934,-0.555563,0.165459,0.009155,-0.919066,1.070230,-0.279581
10.9473,-0.368466,0.196533,-0.609273,-0.209258,0.299057,-0.168189,-0.729344,1.967819,-0.241373,-0.066383,-0.185350,0.055626,-0.609352,0.184610,0.067153,-0.872281,1.063872,-0.326670
10.9806,-0.276580,0.276637,-0.555457,-0.220149,0.335679,-0.138008,-0.863815,2.041845,-0.279020,-0.124795,-0.176655,0.073599,-0.631145,0.198516,0.126848,-0.791003,1.048516,-0.365178
11.0140,-0.173870,0.337313,-0.470886,-0.248427,0.338138,-0.144676,-0.953267,2.021967,-0.279987,-0.171441,-0.180268,0.081522,-0.648506,0.182414,0.174896,-0.683192,1.006888,-0.399086
11.0474,-0.080703,0.383941,-0.382388,-0.282683,0.311701,-0.147856,-1.026703,1.941460,-0.264918,-0.207500,-0.192741,0.096956,-0.677893,0.153660,0.213381,-0.576451,0.959932,-0.425770
11.0808,0.005598,0.415236,-0.301854,-0.322298,0.289936,-0.165910,-1.063069,1.794903,-0.246499,-0.240154,-0.209529,0.100483,-0.714698,0.119603,0.243033,-0.473248,0.908402,-0.432234
11.1141,0.074049,0.442672,-0.234040,-0.355525,0.268696,-0.185274,-1.081734,1.589325,-0.226970,-0.275603,-0.231978,0.135252,-0.753702,0.087458,0.278139,-0.385876,0.845031,-0.434805
11.1475,0.136107,0.463658,-0.147878,-0.387070,0.261853,-0.239170,-1.061828,1.322945,-0.187744,-0.304020,-0.239640,0.145945,-0.800595,0.063044,0.310538,-0.303256,0.765692,-0.437567
11.1809,0.191373,0.467749,-0.069286,-0.403323,0.243495,-0.354661,-0.978214,0.991893,-0.140060,-0.325910,-0.259585,0.164912,-0.835636,0.020846,0.341991,-0.202055,0.671387,-0.436949
11.2143,0.229260,0.472142,-0.012561,-0.407282,0.213205,-0.485341,-0.884487,0.646157,-0.096447,-0.338120,-0.263994,0.163654,-0.877630,-0.014408,0.376492,-0.108524,0.572348,-0.433629
11.2476,0.230260,0.496327,0.007141,-0.398986,0.189483,-0.544741,-0.968015,0.613997,-0.146187,-0.345171,-0.265126,0.155497,-0.901127,-0.023054,0.416422,-0.093443,0.607672,-0.477252
11.2810,0.256693,0.468416,0.075656,-0.379215,0.165797,-0.561034,-0.759171,0.201979,0.002366,-0.350705,-0.257752,0.154343,-0.929079,-0.055491,0.421386,-0.027833,0.546774,-0.458876
11.3144,0.232975,0.473576,0.083003,-0.371516,0.171954,-0.552248,-0.760328,0.219453,0.029655,-0.349612,-0.258113,0.142218,-0.942881,-0.068136,0.431926,-0.035239,0.589347,-0.466288
11.3478,0.220117,0.445646,0.101360,-0.346577,0.188641,-0.535636,-0.710236,0.242274,0.002433,-0.315018,-0.238686,0.124591,-0.940722,-0.103273,0.422364,-0.006950,0.657499,-0.459108
11.3811,0.206591,0.400190,0.099628,-0.319651,0.194808,-0.527650,-0.627902,0.286338,-0.027161,-0.246647,-0.222555,0.103783,-0.909151,-0.173652,0.389090,0.019528,0.770342,-0.412353
11.4145,0.176339,0.356016,0.060507,-0.309360,0.196588,-0.524135,-0.539325,0.344721,-0.095157,-0.165690,-0.218676,0.076779,-0.861320,-0.232918,0.332002,-0.022091,0.967652,-0.308941
11.4479,0.130455,0.301823,-0.001899,-0.310455,0.181855,-0.524536,-0.455117,0.402125,-0.166249,-0.085035,-0.233020,0.061368,-0.797199,-0.272392,0.250465,-0.150734,1.257096,-0.214552
11.4813,0.048310,0.247483,-0.089366,-0.328714,0.139980,-0.545770,-0.380469,0.350338,-0.185598,-0.053261,-0.263386,0.069150,-0.721322,-0.290257,0.177847,-0.378467,1.556520,-0.142121
11.5146,-0.045108,0.236879,-0.179741,-0.356839,0.122998,-0.538192,-0.313765,0.261498,-0.175617,-0.024033,-0.264889,0.080298,-0.665472,-0.223611,0.130218,-0.574850,1.736946,-0.137778
11.5480,-0.156302,0.230104,-0.282330,-0.376856,0.105062,-0.515169,-0.249578,0.156180,-0.144318,0.011430,-0.254676,0.073742,-0.614425,-0.144638,0.092377,-0.754384,1.844292,-0.140386
11.5814,-0.248793,0.202715,-0.362678,-0.398518,0.086852,-0.512455,-0.196587,0.156653,-0.164058,0.070050,-0.266553,0.065137,-0.572864,-0.107333,0.032177,-0.871900,1.888996,-0.140062
11.6148,-0.342388,0.170329,-0.450972,-0.413255,0.065682,-0.506449,-0.161373,0.187422,-0.190129,0.128851,-0.276119,0.066931,-0.533068,-0.079077,-0.028848,-0.963566,1.875279,-0.143508
11.6481,-0.426152,0.137321,-0.526911,-0.439783,0.057750,-0.490308,-0.137782,0.239904,-0.230861,0.186649,-0.272948,0.064733,-0.505647,-0.044585,-0.088986,-1.020131,1.799643,-0.166671
11.6815,-0.502617,0.097516,-0.567913,-0.451592,0.048882,-0.471922,-0.116763,0.301410,-0.283821,0.240835,-0.269747,0.059648,-0.487697,-0.025497,-0.134827,-1.045672,1.674585,-0.186938
11.7149,-0.581697,0.050515,-0.620731,-0.450075,0.038300,-0.453081,-0.098872,0.353329,-0.320756,0.286905,-0.261488,0.059323,-0.481631,-0.012809,-0.163819,-1.045892,1.496028,-0.182845
11.7483,-0.644331,0.015789,-0.646833,-0.454948,0.023125,-0.425740,-0.086084,0.392133,-0.340536,0.314242,-0.254016,0.053609,-0.476529,0.004916,-0.176561,-1.032304,1.279843,-0.163886
11.7816,-0.675265,0.012314,-0.642457,-0.488511,0.017270,-0.410560,-0.057553,0.399229,-0.366826,0.316635,-0.254847,0.061421,-0.465067,0.028370,-0.169996,-1.001523,1.029035,-0.120752
11.8150,-0.688125,0.012061,-0.619446,-0.518978,0.012249,-0.404271,-0.022286,0.389838,-0.388304,0.299732,-0.264017,0.079207,-0.451681,0.056104,-0.128519,-0.959582,0.777581,-0.080375
11.8484,-0.691726,0.012678,-0.588550,-0.537705,0.006526,-0.424241,0.016098,0.374598,-0.393261,0.266229,-0.284456,0.096022,-0.442716,0.079091,-0.084867,-0.916168,0.566880,-0.051213
11.8818,-0.685319,0.009167,-0.576029,-0.544689,-0.011826,-0.441001,0.019425,0.438388,-0.419038,0.239823,-0.316407,0.098283,-0.445874,0.086812,-0.066566,-0.950877,0.590222,-0.077385
11.9152,-0.667745,0.008785,-0.567589,-0.539189,-0.015411,-0.431197,0.018435,0.527928,-0.432216,0.208669,-0.327375,0.094717,-0.448846,0.106287,-0.104807,-0.954157,0.665617,-0.085379
11.9485,-0.629008,0.011124,-0.559241,-0.515179,0.000634,-0.418796,0.019191,0.650445,-0.434369,0.177819,-0.323323,0.077467,-0.452165,0.120072,-0.178170,-0.955684,0.768171,-0.104074
11.9819,-0.570320,0.017950,-0.555073,-0.471981,0.047026,-0.426489,0.012195,0.813189,-0.394484,0.145501,-0.310941,0.048847,-0.456386,0.115766,-0.174571,-0.965896,0.902573,-0.124207
12.0153,-0.485338,0.025121,-0.550063,-0.363597,0.105812,-0.379076,-0.062095,1.095049,-0.332353,0.117362,-0.261205,0.006861,-0.464524,0.138755,-0.130078,-0.932596,1.026182,-0.211911
12.0487,-0.461403,0.048218,-0.549907,-0.232721,0.169706,-0.345175,-0.282014,1.460323,-0.246788,0.056341,-0.224469,0.006442,-0.506026,0.156765,-0.075228,-0.923736,1.054947,-0.257681
12.0820,-0.415531,0.108776,-0.543362,-0.195992,0.236322,-0.323385,-0.472641,1.707698,-0.180931,-0.005361,-0.204634,0.015971,-0.573900,0.169839,-0.029740,-0.890166,1.038945,-0.296971
12.1154,-0.348005,0.185586,-0.524722,-0.189217,0.289580,-0.285685,-0.620862,1.861961,-0.246326,-0.056932,-0.188524,0.037577,-0.634193,0.188617,0.026460,-0.831416,1.028881,-0.342031
12.1488,-0.244476,0.269053,-0.449821,-0.226566,0.325080,-0.226757,-0.758695,1.950406,-0.288399,-0.097930,-0.173636,0.057716,-0.681886,0.208862,0.078518,-0.744843,1.006972,-0.381188
12.1822,-0.136392,0.334660,-0.367923,-0.269450,0.352605,-0.188616,-0.854912,1.960527,-0.307090,-0.126742,-0.167498,0.072272,-0.723839,0.208121,0.131138,-0.621229,0.959177,-0.414784
12.2155,-0.040766,0.382075,-0.287005,-0.312734,0.351515,-0.162147,-0.926715,1.893659,-0.316837,-0.156407,-0.175141,0.082751,-0.762258,0.182744,0.180755,-0.494031,0.895943,-0.437835
12.2489,0.035158,0.421041,-0.215877,-0.349468,0.340051,-0.157769,-0.983602,1.772618,-0.310908,-0.185539,-0.190873,0.103847,-0.802623,0.154690,0.218326,-0.382532,0.837657,-0.453728
12.2823,0.094778,0.450378,-0.151668,-0.384588,0.320762,-0.174579,-1.019684,1.591743,-0.280732,-0.220266,-0.206401,0.121681,-0.843756,0.124464,0.250016,-0.293622,0.780292,-0.461193
12.3157,0.140890,0.467334,-0.094428,-0.408275,0.291194,-0.205050,-1.017090,1.350108,-0.228031,-0.250573,-0.221739,0.131133,-0.881670,0.085930,0.274664,-0.205013,0.709385,-0.466883
12.3490,0.167019,0.471121,-0.047860,-0.418540,0.247051,-0.287779,-0.975810,1.037661,-0.155665,-0.282214,-0.240476,0.135072,-0.910183,0.043958,0.293319,-0.136671,0.640167,-0.462789
12.3824,0.181539,0.480504,-0.011854,-0.418414,0.207178,-0.391262,-0.908339,0.680863,-0.088013,-0.309407,-0.247530,0.132407,-0.931175,0.018034,0.328375,-0.077987,0.566790,-0.453315
12.4158,0.179261,0.508964,-0.003650,-0.410939,0.184086,-0.460129,-0.999585,0.649495,-0.134099,-0.317802,-0.251178,0.124438,-0.947401,0.009594,0.368624,-0.067017,0.610613,-0.493255
12.4492,0.186545,0.482984,0.029809,-0.392738,0.142435,-0.490812,-0.773660,0.161747,0.047194,-0.341376,-0.249835,0.125851,-0.945972,-0.025335,0.375819,-0.030998,0.570477,-0.465007
12.4825,0.176580,0.474847,0.029563,-0.383860,0.159127,-0.466198,-0.723807,0.141514,0.086631,-0.333978,-0.244188,0.115383,-0.947817,-0.047257,0.377586,-0.026672,0.632913,-0.469963
12.5159,0.150107,0.476269,0.026268,-0.381041,0.156873,-0.454239,-0.709598,0.149268,0.068377,-0.318559,-0.245734,0.103277,-0.945703,-0.074813,0.387956,-0.042199,0.723645,-0.444672
12.5493,0.145695,0.429693,-0.000474,-0.351488,0.176698,-0.463496,-0.610024,0.187047,0.041952,-0.253426,-0.231561,0.097888,-0.907388,-0.137187,0.355327,-0.035071,0.879404,-0.385241
12.5827,0.114489,0.379716,-0.047630,-0.330822,0.174408,-0.465409,-0.527810,0.233434,-0.010565,-0.191640,-0.233942,0.094641,-0.853040,-0.196720,0.310490,-0.109310,1.105685,-0.287078
12.6160,0.059417,0.317137,-0.120684,-0.311886,0.152691,-0.485020,-0.452219,0.293091,-0.084845,-0.132538,-0.258387,0.106019,-0.776796,-0.242812,0.228817,-0.266276,1.402783,-0.182554
12.6494,-0.036577,0.255360,-0.184121,-0.296170,0.105980,-0.516554,-0.408879,0.279355,-0.113996,-0.117015,-0.286437,0.119856,-0.678044,-0.236423,0.142662,-0.518402,1.688112,-0.098921
12.6828,-0.130063,0.234392,-0.259009,-0.312405,0.090607,-0.513506,-0.330553,0.191450,-0.110268,-0.075989,-0.286497,0.114635,-0.622317,-0.184655,0.108162,-0.692217,1.830301,-0.113213
12.7162,-0.216230,0.215503,-0.341129,-0.340784,0.093925,-0.500825,-0.201822,0.063218,-0.088342,-0.014354,-0.281593,0.092734,-0.577505,-0.135559,0.077044,-0.814126,1.897541,-0.132731
12.7495,-0.298464,0.174874,-0.398355,-0.374844,0.072816,-0.510235,-0.132984,0.053768,-0.109449,0.056740,-0.294513,0.063986,-0.546508,-0.129033,0.038608,-0.920372,1.923187,-0.136976
12.7829,-0.385185,0.132836,-0.468946,-0.406570,0.055210,-0.509404,-0.082220,0.068633,-0.137530,0.127704,-0.303054,0.043905,-0.516544,-0.115705,-0.004696,-1.000873,1.887395,-0.151659
12.8163,-0.465359,0.091295,-0.522788,-0.433960,0.043846,-0.490077,-0.046635,0.106507,-0.165549,0.194286,-0.296858,0.020847,-0.488698,-0.083139,-0.055357,-1.042828,1.785546,-0.176788
12.8497,-0.533490,0.055556,-0.566502,-0.457487,0.045538,-0.465007,-0.014550,0.162464,-0.207267,0.251764,-0.283487,0.005241,-0.465365,-0.055091,-0.094022,-1.048190,1.632082,-0.187977
12.8831,-0.597032,0.017153,-0.613594,-0.469366,0.053618,-0.440176,0.004501,0.246407,-0.270209,0.298465,-0.265224,0.001087,-0.449553,-0.030636,-0.126067,-1.022453,1.431643,-0.177995
12.9164,-0.640840,0.012539,-0.637516,-0.505277,0.055205,-0.415285,-0.014367,0.348227,-0.334411,0.312371,-0.256490,0.021788,-0.438005,-0.006349,-0.135277,-0.995304,1.186842,-0.148270
12.9498,-0.673809,0.010294,-0.632053,-0.550905,0.049430,-0.403767,-0.029314,0.401525,-0.370259,0.302945,-0.259776,0.044579,-0.435472,0.013565,-0.120342,-0.963047,0.906809,-0.104646
12.9832,-0.693550,0.009754,-0.615761,-0.587742,0.044802,-0.398832,-0.023756,0.419374,-0.391889,0.282469,-0.266079,0.058864,-0.437679,0.039957,-0.088748,-0.916058,0.636090,-0.062022
13.0166,-0.699804,0.010010,-0.610715,-0.602944,0.047187,-0.391447,-0.006484,0.443156,-0.416052,0.260234,-0.270883,0.072551,-0.442004,0.072717,-0.082954,-0.862190,0.442470,-0.029309
13.0499,-0.696814,0.009158,-0.608860,-0.607443,0.041570,-0.384939,-0.009778,0.515668,-0.444490,0.237072,-0.288375,0.073877,-0.449543,0.086428,-0.115185,-0.884935,0.490502,-0.042696
13.0833,-0.678415,0.010843,-0.607022,-0.598420,0.046642,-0.354395,-0.010959,0.608838,-0.468482,0.211143,-0.290147,0.069922,-0.454295,0.109611,-0.173525,-0.881792,0.581564,-0.070470
13.1167,-0.639119,0.015557,-0.605925,-0.571856,0.070034,-0.330693,-0.007128,0.731298,-0.473101,0.182905,-0.284949,0.066774,-0.456474,0.118754,-0.191664,-0.890760,0.703931,-0.073009
13.1501,-0.585622,0.024816,-0.605511,-0.525554,0.122370,-0.319455,-0.015801,0.893944,-0.437336,0.153474,-0.273779,0.063954,-0.460337,0.121868,-0.164214,-0.890991,0.837083,-0.131652
13.1834,-0.517753,0.044503,-0.603675,-0.467897,0.171902,-0.276126,-0.059545,1.119282,-0.362301,0.126780,-0.260055,0.065552,-0.463693,0.137529,-0.130304,-0.869664,0.976102,-0.214630
13.2168,-0.445092,0.080174,-0.610525,-0.342016,0.231669,-0.197415,-0.227185,1.470486,-0.308837,0.080968,-0.200271,0.090669,-0.480066,0.168519,-0.052375,-0.832454,1.058707,-0.290078
13.2502,-0.445339,0.134443,-0.623698,-0.271116,0.308684,-0.171074,-0.483334,1.759623,-0.265756,0.000894,-0.164995,0.108018,-0.536651,0.179365,0.012193,-0.837983,1.044938,-0.304288
13.2836,-0.386170,0.211555,-0.612791,-0.272518,0.371797,-0.149590,-0.635902,1.914669,-0.321030,-0.050819,-0.146093,0.124998,-0.590383,0.188240,0.074931,-0.791729,1.048483,-0.349272
13.3169,-0.310278,0.284353,-0.538172,-0.298334,0.389131,-0.147979,-0.769027,1.988270,-0.332700,-0.100049,-0.140322,0.127579,-0.634866,0.183218,0.124740,-0.726614,1.045378,-0.387011
13.3503,-0.235170,0.340765,-0.456940,-0.324091,0.364738,-0.164406,-0.873906,1.982871,-0.324412,-0.136123,-0.143080,0.109605,-0.678391,0.154999,0.164081,-0.648395,1.041080,-0.423122
13.3837,-0.161657,0.378670,-0.359817,-0.342805,0.323811,-0.178347,-0.939139,1.907089,-0.325152,-0.158581,-0.159552,0.098904,-0.722274,0.113854,0.198548,-0.548365,1.020070,-0.457314
13.4171,-0.093581,0.401301,-0.244061,-0.372463,0.280828,-0.199259,-0.996597,1.775207,-0.308882,-0.188667,-0.182384,0.100104,-0.766370,0.073460,0.224077,-0.462494,0.982421,-0.473497
13.4504,-0.033259,0.417741,-0.154516,-0.400019,0.240585,-0.205280,-1.005743,1.587194,-0.281133,-0.205746,-0.207071,0.097013,-0.808194,0.021659,0.259329,-0.349384,0.918994,-0.484507
13.4838,0.013991,0.444447,-0.086726,-0.423452,0.228361,-0.245660,-0.996160,1.342595,-0.233190,-0.233173,-0.218773,0.099167,-0.843402,-0.008882,0.291779,-0.258504,0.845895,-0.479619
13.5172,0.051967,0.455812,-0.037473,-0.436919,0.198515,-0.338108,-0.930321,1.019297,-0.177199,-0.255058,-0.239157,0.100480,-0.874092,-0.055690,0.317914,-0.168758,0.763268,-0.474133
13.5506,0.077261,0.465114,0.013126,-0.450613,0.151428,-0.462273,-0.849793,0.637129,-0.100732,-0.280491,-0.258579,0.106514,-0.901138,-0.092160,0.353870,-0.107956,0.686831,-0.462176
13.5839,0.080309,0.492392,0.026608,-0.445376,0.123095,-0.529079,-0.943154,0.597971,-0.156710,-0.289188,-0.269827,0.104702,-0.919643,-0.106281,0.397087,-0.092485,0.730807,-0.505502
13.6173,0.086614,0.500735,0.051570,-0.440262,0.097169,-0.568500,-0.980772,0.560378,-0.161451,-0.300480,-0.276433,0.102904,-0.939211,-0.122394,0.420253,-0.076635,0.756301,-0.521276
13.6507,0.150428,0.454667,0.110448,-0.431024,0.126699,-0.551480,-0.704657,0.245820,-0.010027,-0.278801,-0.269615,0.114515,-0.932154,-0.171089,0.396074,0.050503,0.667104,-0.465214
13.6841,0.150418,0.428078,0.120725,-0.410257,0.133296,-0.527220,-0.656753,0.249007,-0.012451,-0.251179,-0.272207,0.110112,-0.921368,-0.206385,0.386123,0.064478,0.740583,-0.433668
13.7174,0.153080,0.386626,0.109778,-0.375886,0.149904,-0.533023,-0.583246,0.285809,-0.033446,-0.203392,-0.269864,0.106613,-0.886007,-0.257701,0.353964,0.053937,0.871259,-0.353383
13.7508,0.149962,0.326100,0.082552,-0.339411,0.158450,-0.538435,-0.485137,0.336949,-0.098388,-0.139520,-0.271688,0.102589,-0.819694,-0.299974,0.284312,-0.024003,1.100445,-0.259936
13.7842,0.130564,0.265704,0.054623,-0.333093,0.152022,-0.550240,-0.410496,0.391638,-0.167707,-0.083341,-0.287120,0.105189,-0.749114,-0.323081,0.208309,-0.166132,1.369005,-0.170743
13.8176,0.090812,0.207113,0.030276,-0.362912,0.133907,-0.577907,-0.324517,0.323260,-0.183279,-0.071223,-0.303336,0.127268,-0.660166,-0.299482,0.132236,-0.393221,1.631476,-0.127543
13.8509,0.027562,0.191422,-0.022356,-0.399353,0.129076,-0.566354,-0.242080,0.207577,-0.160245,-0.041175,-0.292808,0.125093,-0.612808,-0.224606,0.095483,-0.581647,1.783727,-0.147598
13.8843,-0.050938,0.183781,-0.115457,-0.416562,0.120849,-0.541206,-0.146847,0.096355,-0.133691,0.014001,-0.286970,0.105812,-0.579829,-0.172678,0.061900,-0.729675,1.869566,-0.157513
13.9177,-0.129510,0.168146,-0.203704,-0.433092,0.114720,-0.534791,-0.088946,0.109028,-0.156596,0.085790,-0.291622,0.080057,-0.554257,-0.144654,0.012682,-0.837713,1.905525,-0.162958
13.9511,-0.219035,0.154727,-0.313202,-0.449510,0.106823,-0.513358,-0.060817,0.151803,-0.195574,0.154693,-0.284792,0.054492,-0.529189,-0.108333,-0.021625,-0.918971,1.876809,-0.180265
13.9845,-0.308689,0.138131,-0.436341,-0.466921,0.111973,-0.497186,-0.037691,0.220048,-0.246935,0.218506,-0.272956,0.034913,-0.511769,-0.060741,-0.077055,-0.971635,1.791736,-0.194581
14.0178,-0.392218,0.112532,-0.542199,-0.490441,0.116550,-0.482090,-0.027455,0.304616,-0.307466,0.271699,-0.264497,0.025912,-0.498208,-0.028844,-0.114683,-1.000945,1.665342,-0.203795
14.0512,-0.471860,0.077498,-0.621955,-0.504629,0.111212,-0.458174,-0.034082,0.394243,-0.360307,0.311736,-0.254900,0.018303,-0.485722,-0.006566,-0.136908,-1.009971,1.490888,-0.190612
14.0846,-0.557288,0.036113,-0.674866,-0.508991,0.091431,-0.445678,-0.040955,0.442515,-0.392843,0.326042,-0.258212,0.019488,-0.475051,0.000807,-0.146370,-1.017853,1.278914,-0.161415
14.1180,-0.608794,0.020317,-0.672566,-0.548936,0.081889,-0.438686,-0.027921,0.446046,-0.406472,0.319375,-0.260885,0.024267,-0.461719,0.020734,-0.131543,-0.998203,1.024347,-0.105083
14.1513,-0.639540,0.018612,-0.666317,-0.581774,0.081408,-0.439107,0.009724,0.425744,-0.414961,0.300570,-0.268287,0.036815,-0.446632,0.050445,-0.101617,-0.951322,0.763652,-0.063945
14.1847,-0.657042,0.017947,-0.649634,-0.607154,0.085366,-0.445984,0.043084,0.420547,-0.423343,0.271412,-0.276699,0.049509,-0.439142,0.083503,-0.082984,-0.897558,0.546724,-0.033266
14.2181,-0.660259,0.014560,-0.642347,-0.620045,0.081589,-0.445489,0.049785,0.487315,-0.449668,0.245186,-0.289610,0.048358,-0.437188,0.101477,-0.101998,-0.913593,0.555238,-0.064798
14.2515,-0.651111,0.013994,-0.645047,-0.620635,0.083065,-0.415282,0.047296,0.580338,-0.469531,0.220287,-0.296241,0.050895,-0.439066,0.122007,-0.142473,-0.912326,0.633015,-0.084053
14.2848,-0.624103,0.017103,-0.649778,-0.604013,0.104687,-0.397422,0.047991,0.704900,-0.475416,0.191820,-0.291308,0.051281,-0.441066,0.137319,-0.201613,-0.913999,0.739720,-0.100804
14.3182,-0.575439,0.024458,-0.651173,-0.569070,0.146846,-0.375202,0.035525,0.874279,-0.434722,0.161262,-0.278332,0.054355,-0.441812,0.138698,-0.184063,-0.916153,0.869572,-0.141841
14.3516,-0.500825,0.034006,-0.649989,-0.469161,0.206396,-0.292749,-0.051188,1.168962,-0.373052,0.129731,-0.217727,0.067872,-0.435784,0.170184,-0.120446,-0.875444,0.992818,-0.234768
14.3850,-0.484149,0.068999,-0.629125,-0.341185,0.273715,-0.217983,-0.309078,1.554423,-0.294356,0.050704,-0.156346,0.100488,-0.441064,0.206896,-0.039327,-0.871815,1.014429,-0.268339
14.4183,-0.437582,0.127266,-0.561537,-0.303630,0.345260,-0.185138,-0.514023,1.802104,-0.236585,-0.010101,-0.123154,0.101094,-0.492713,0.222872,0.027851,-0.838406,1.000123,-0.305671
14.4517,-0.384165,0.184713,-0.492100,-0.285562,0.373781,-0.172420,-0.689739,1.948125,-0.283948,-0.066478,-0.111105,0.134027,-0.558248,0.224755,0.076437,-0.800377,0.992499,-0.342962
14.4851,-0.300485,0.237463,-0.374849,-0.303564,0.357789,-0.174287,-0.832249,2.002361,-0.278532,-0.111302,-0.109743,0.155476,-0.624517,0.210785,0.112639,-0.738770,0.984771,-0.384324
14.5185,-0.215849,0.284733,-0.293834,-0.319928,0.314570,-0.179865,-0.932561,1.973723,-0.259310,-0.150132,-0.130692,0.182166,-0.684864,0.175176,0.146728,-0.652401,0.962841,-0.422057
14.5518,-0.129944,0.325675,-0.194852,-0.365398,0.296162,-0.179684,-1.013386,1.890140,-0.263135,-0.177569,-0.141430,0.192017,-0.755149,0.151995,0.193620,-0.551402,0.916922,-0.449715
14.5852,-0.051179,0.366227,-0.125101,-0.399384,0.282423,-0.186072,-1.049684,1.746135,-0.261648,-0.201407,-0.157194,0.194054,-0.824625,0.119552,0.231862,-0.451114,0.865572,-0.467524
14.6186,0.022671,0.410022,-0.066835,-0.424476,0.287354,-0.195662,-1.051839,1.562212,-0.250213,-0.221932,-0.169982,0.199267,-0.885529,0.092917,0.277359,-0.337080,0.801422,-0.477935
14.6520,0.080812,0.441412,-0.010388,-0.440237,0.270200,-0.227595,-1.029117,1.311524,-0.210275,-0.252353,-0.195340,0.205846,-0.932563,0.061917,0.306636,-0.246127,0.729747,-0.474077
14.6853,0.125172,0.459438,0.033449,-0.445516,0.235665,-0.304504,-0.974169,0.998357,-0.139601,-0.280565,-0.219483,0.205937,-0.971688,0.022238,0.329291,-0.169960,0.654355,-0.466962
14.7187,0.155657,0.465912,0.085703,-0.446361,0.181738,-0.403513,-0.899427,0.629857,-0.050116,-0.310376,-0.243579,0.198661,-1.001424,-0.012879,0.356703,-0.122693,0.592319,-0.456242
14.7521,0.163214,0.497453,0.092360,-0.435926,0.157163,-0.455552,-0.989589,0.591312,-0.091967,-0.323054,-0.252187,0.189351,-1.022551,-0.018832,0.391629,-0.121996,0.639011,-0.495115
14.7855,0.171288,0.508638,0.117733,-0.420224,0.131136,-0.488638,-1.023138,0.551339,-0.096095,-0.335256,-0.258324,0.175801,-1.037961,-0.037578,0.414519,-0.115903,0.677117,-0.518517
14.8188,0.234392,0.464036,0.165144,-0.395660,0.162255,-0.486757,-0.746054,0.264325,0.027524,-0.320221,-0.247967,0.173543,-1.003826,-0.090278,0.388882,0.012239,0.606303,-0.481207
14.8522,0.225491,0.454693,0.167014,-0.379934,0.171527,-0.471315,-0.716412,0.283384,-0.003205,-0.292916,-0.245755,0.154714,-0.995135,-0.117760,0.391112,0.017684,0.675807,-0.462361
14.8856,0.228854,0.411717,0.158545,-0.351680,0.177979,-0.473600,-0.647300,0.322175,-0.023764,-0.239450,-0.237301,0.138420,-0.955789,-0.180272,0.362825,0.024655,0.799056,-0.408879
14.9190,0.216068,0.365317,0.131478,-0.329849,0.177818,-0.468940,-0.575197,0.381802,-0.085455,-0.174716,-0.241725,0.125969,-0.893023,-0.235722,0.316815,-0.025904,0.995738,-0.325085
14.9523,0.186785,0.310473,0.081150,-0.318219,0.160981,-0.475958,-0.511360,0.451046,-0.160183,-0.111254,-0.259250,0.115270,-0.806652,-0.272754,0.243195,-0.165739,1.286332,-0.230583
14.9857,0.128065,0.258316,0.004749,-0.319695,0.130947,-0.496288,-0.443475,0.424073,-0.189544,-0.091594,-0.281721,0.120072,-0.694120,-0.274211,0.164764,-0.389079,1.573723,-0.137938
15.0191,0.048914,0.239507,-0.078151,-0.329309,0.114349,-0.505906,-0.361807,0.328605,-0.187889,-0.061580,-0.283409,0.114173,-0.621391,-0.229030,0.115582,-0.586446,1.758720,-0.127477
15.0525,-0.043297,0.225914,-0.163390,-0.343641,0.101935,-0.500921,-0.257553,0.196334,-0.161661,-0.016232,-0.279966,0.095763,-0.558055,-0.170550,0.075553,-0.751565,1.867535,-0.137711
15.0859,-0.137182,0.198743,-0.253654,-0.359499,0.085727,-0.490733,-0.150103,0.100726,-0.143971,0.050826,-0.282761,0.063225,-0.511387,-0.142583,0.037437,-0.871929,1.918361,-0.134013
15.1192,-0.220225,0.165718,-0.330195,-0.389479,0.067710,-0.478213,-0.100037,0.117985,-0.169636,0.123464,-0.289220,0.036258,-0.482920,-0.119585,-0.004925,-0.961524,1.912453,-0.146675
15.1526,-0.300886,0.135917,-0.414831,-0.429206,0.069056,-0.474044,-0.061191,0.158806,-0.206136,0.195431,-0.280844,0.013298,-0.464590,-0.078915,-0.045755,-1.015156,1.838054,-0.175600
15.1860,-0.365968,0.105381,-0.483131,-0.476239,0.077281,-0.460740,-0.026623,0.216720,-0.252813,0.261190,-0.269428,0.001878,-0.455671,-0.040306,-0.086645,-1.038021,1.710452,-0.184163
15.2194,-0.423011,0.082096,-0.550122,-0.519774,0.091481,-0.435591,-0.005651,0.291161,-0.303973,0.315369,-0.250428,0.010645,-0.455917,0.000190,-0.115766,-1.023930,1.523704,-0.178322
15.2527,-0.488488,0.053432,-0.597728,-0.550038,0.080930,-0.408481,-0.011287,0.367199,-0.354133,0.343568,-0.245682,0.029451,-0.454392,0.021536,-0.128983,-1.005890,1.300274,-0.158927
15.2861,-0.538514,0.023098,-0.594518,-0.588822,0.064630,-0.395240,-0.008455,0.398283,-0.375398,0.352495,-0.250566,0.039628,-0.459867,0.030213,-0.111094,-0.980533,1.038484,-0.118630
15.3195,-0.565856,0.020446,-0.578817,-0.643063,0.059410,-0.403571,0.011153,0.398156,-0.390675,0.336179,-0.267405,0.061073,-0.461592,0.046584,-0.064298,-0.940907,0.759521,-0.071736
15.3529,-0.583790,0.020165,-0.565271,-0.678120,0.057765,-0.418988,0.039113,0.395315,-0.400803,0.310161,-0.287525,0.072774,-0.461413,0.067554,-0.027076,-0.884334,0.505187,-0.037953
15.3862,-0.588122,0.018572,-0.558193,-0.695690,0.047310,-0.428073,0.042658,0.459992,-0.434038,0.285433,-0.318765,0.080864,-0.467333,0.073373,-0.023502,-0.922357,0.519242,-0.067813
15.4196,-0.585137,0.020884,-0.554281,-0.699457,0.050292,-0.407660,0.043975,0.547176,-0.458140,0.256235,-0.331475,0.088730,-0.470439,0.085978,-0.051246,-0.927378,0.590649,-0.082130
15.4530,-0.555685,0.023813,-0.552213,-0.670176,0.072813,-0.370269,0.055633,0.671036,-0.478009,0.226269,-0.313956,0.096020,-0.462980,0.106700,-0.090430,-0.911787,0.691489,-0.106807
15.4864,-0.513751,0.030164,-0.540376,-0.633763,0.113427,-0.375215,0.051083,0.823475,-0.444951,0.190523,-0.320077,0.103752,-0.462123,0.092393,-0.081913,-0.934375,0.833571,-0.121930
15.5197,-0.447956,0.039433,-0.519485,-0.523102,0.180164,-0.314304,-0.013994,1.095521,-0.381200,0.146501,-0.276378,0.122260,-0.437661,0.114861,-0.036722,-0.907882,0.976767,-0.210842
15.5531,-0.444886,0.075859,-0.535174,-0.365843,0.235300,-0.234360,-0.260857,1.487609,-0.302019,0.063669,-0.217845,0.138467,-0.425734,0.146701,0.036360,-0.899055,1.015292,-0.255736
15.5865,-0.408418,0.133412,-0.516209,-0.301118,0.312524,-0.197938,-0.464072,1.753824,-0.216021,-0.000216,-0.183363,0.148062,-0.470798,0.171874,0.096454,-0.858692,1.004640,-0.292889
15.6199,-0.364857,0.194761,-0.482641,-0.268238,0.337950,-0.155984,-0.658963,1.931491,-0.268354,-0.054258,-0.161487,0.158311,-0.536242,0.181786,0.161691,-0.812833,0.991158,-0.334767
15.6532,-0.287163,0.264571,-0.418236,-0.270928,0.347468,-0.115648,-0.817245,2.022375,-0.290226,-0.106126,-0.149383,0.176157,-0.595337,0.188181,0.212691,-0.741376,0.975485,-0.372250
15.6866,-0.187059,0.320194,-0.322210,-0.300700,0.341600,-0.120391,-0.911666,2.016574,-0.286175,-0.151316,-0.152520,0.194223,-0.648129,0.174384,0.239862,-0.644462,0.949995,-0.409050
15.7200,-0.077938,0.365380,-0.216699,-0.338223,0.330422,-0.115621,-0.965874,1.941977,-0.297688,-0.182971,-0.152178,0.201181,-0.708987,0.150780,0.275059,-0.520829,0.898437,-0.440007
15.7534,0.007081,0.399958,-0.141988,-0.374290,0.307935,-0.114435,-1.018567,1.812012,-0.287546,-0.211075,-0.163635,0.210091,-0.789412,0.120361,0.308094,-0.411186,0.834577,-0.455195
15.7867,0.081050,0.425329,-0.086674,-0.394098,0.288154,-0.149106,-1.024304,1.621782,-0.270398,-0.247947,-0.180897,0.236277,-0.863013,0.085106,0.327991,-0.312865,0.777123,-0.473196
15.8201,0.142685,0.447131,-0.023438,-0.419064,0.262291,-0.176994,-1.011003,1.376397,-0.231381,-0.282496,-0.202324,0.258569,-0.931026,0.053745,0.350281,-0.221272,0.700392,-0.470572
15.8535,0.199296,0.458765,0.034790,-0.434098,0.243869,-0.266681,-0.948846,1.058894,-0.172197,-0.316193,-0.210500,0.267786,-0.987721,0.028508,0.369768,-0.133079,0.611681,-0.462055
15.8869,0.224554,0.463524,0.074899,-0.431246,0.192529,-0.389175,-0.874326,0.727228,-0.111627,-0.340249,-0.230612,0.264783,-1.031780,-0.011017,0.389667,-0.064774,0.544614,-0.461849
15.9202,0.228188,0.494489,0.087748,-0.417828,0.173487,-0.462059,-0.956159,0.697392,-0.170031,-0.350006,-0.236594,0.256226,-1.058648,-0.015933,0.427264,-0.048047,0.586302,-0.506557
15.9536,0.233198,0.506006,0.114613,-0.397639,0.150362,-0.512499,-0.990339,0.662641,-0.185655,-0.362032,-0.241086,0.247637,-1.082209,-0.029869,0.444165,-0.035403,0.622946,-0.529669
15.9870,0.278794,0.450492,0.181991,-0.378277,0.162504,-0.538296,-0.713882,0.309717,-0.036262,-0.364694,-0.227793,0.257064,-1.067526,-0.073904,0.415336,0.042733,0.584198,-0.499265
16.0204,0.268860,0.440146,0.182588,-0.360686,0.177941,-0.501393,-0.665608,0.307773,-0.051781,-0.337270,-0.220772,0.246750,-1.059372,-0.092331,0.410268,0.050415,0.662688,-0.488694
16.0537,0.257932,0.416060,0.163100,-0.342261,0.190007,-0.492157,-0.609070,0.348977,-0.049818,-0.285096,-0.211692,0.234108,-1.028311,-0.140412,0.386924,0.041775,0.803960,-0.435947
16.0871,0.237123,0.378672,0.115751,-0.327402,0.201041,-0.478026,-0.527471,0.401833,-0.111057,-0.217585,-0.206858,0.222565,-0.969184,-0.187342,0.333885,-0.038632,1.055275,-0.343699
16.1205,0.172583,0.326711,0.030828,-0.312275,0.173788,-0.497830,-0.454773,0.406056,-0.150844,-0.180709,-0.230128,0.223251,-0.863429,-0.221336,0.260197,-0.246778,1.400417,-0.242916
16.1539,0.088973,0.293028,-0.055893,-0.319948,0.137663,-0.507482,-0.417199,0.405564,-0.179627,-0.137915,-0.250562,0.209402,-0.788787,-0.224002,0.198426,-0.460940,1.656381,-0.124114
16.1873,-0.011334,0.280341,-0.156912,-0.337134,0.114864,-0.504576,-0.369109,0.351804,-0.179913,-0.098480,-0.253961,0.185577,-0.714605,-0.165859,0.148635,-0.659333,1.816688,-0.110828
16.2206,-0.111039,0.265356,-0.275602,-0.361157,0.107478,-0.512839,-0.267200,0.259417,-0.166638,-0.038577,-0.256439,0.154140,-0.646643,-0.119522,0.091545,-0.797729,1.891542,-0.124710
16.2540,-0.197847,0.228554,-0.361713,-0.402414,0.086411,-0.536283,-0.202989,0.278845,-0.198402,0.037330,-0.281707,0.120290,-0.594707,-0.123139,0.018380,-0.899062,1.926075,-0.123258
16.2874,-0.284970,0.186056,-0.446935,-0.442161,0.064346,-0.546096,-0.163058,0.326968,-0.249865,0.113236,-0.305809,0.090307,-0.547265,-0.129418,-0.051968,-0.979512,1.907990,-0.129558
16.3208,-0.382502,0.144743,-0.541144,-0.469688,0.044962,-0.526047,-0.141856,0.379557,-0.278388,0.187747,-0.306043,0.051279,-0.507308,-0.108587,-0.118080,-1.023940,1.817775,-0.146043
16.3541,-0.479712,0.098952,-0.610241,-0.487509,0.031790,-0.508033,-0.131957,0.424853,-0.293675,0.250438,-0.295701,0.013147,-0.480303,-0.092364,-0.155898,-1.056756,1.684976,-0.151434
16.3875,-0.564917,0.052984,-0.665061,-0.504432,0.019913,-0.481862,-0.119146,0.457422,-0.310362,0.302803,-0.285537,-0.002446,-0.468574,-0.072542,-0.166657,-1.063619,1.515247,-0.145917
16.4209,-0.632782,0.019449,-0.679850,-0.525731,0.008669,-0.458308,-0.099225,0.466893,-0.327516,0.338761,-0.277928,0.001829,-0.463733,-0.038657,-0.173291,-1.050049,1.311507,-0.117266
16.4543,-0.663964,0.013209,-0.687845,-0.574173,0.005984,-0.432231,-0.068841,0.475173,-0.342427,0.356680,-0.267932,0.002240,-0.461816,0.006737,-0.158525,-1.010514,1.078499,-0.079397
16.4876,-0.678358,0.012128,-0.686777,-0.612760,0.013922,-0.424104,-0.033372,0.480610,-0.362811,0.354244,-0.270236,0.014152,-0.454539,0.055249,-0.130738,-0.962824,0.846216,-0.052450
16.5210,-0.674497,0.012238,-0.672200,-0.646067,0.010889,-0.426116,0.006045,0.476796,-0.370949,0.336748,-0.282074,0.033089,-0.451112,0.093963,-0.107830,-0.909109,0.644888,-0.045862
16.5544,-0.662458,0.012718,-0.664044,-0.659314,0.017658,-0.424328,0.032453,0.508344,-0.385241,0.312841,-0.287486,0.048273,-0.454826,0.129079,-0.091617,-0.868673,0.535210,-0.034794
16.5878,-0.641853,0.011417,-0.660406,-0.660484,0.009717,-0.403474,0.028411,0.596750,-0.403070,0.287948,-0.296410,0.057194,-0.462819,0.147371,-0.120579,-0.876327,0.600191,-0.062155
16.6211,-0.614264,0.012920,-0.662805,-0.647400,0.005895,-0.383911,0.021471,0.716816,-0.392408,0.262608,-0.302078,0.064314,-0.470469,0.159020,-0.199398,-0.882611,0.705148,-0.083167
16.6545,-0.563602,0.017564,-0.658119,-0.614994,0.041581,-0.394471,0.002489,0.877081,-0.341978,0.230330,-0.300002,0.067415,-0.478468,0.136816,-0.192039,-0.902974,0.845995,-0.107702
16.6879,-0.494465,0.025391,-0.666335,-0.509455,0.099207,-0.341787,-0.091684,1.172390,-0.277492,0.196099,-0.252716,0.060269,-0.486062,0.153805,-0.138685,-0.897187,1.002751,-0.202725
16.7213,-0.460442,0.040900,-0.660783,-0.362548,0.177563,-0.299875,-0.281848,1.518518,-0.222677,0.142007,-0.210242,0.057372,-0.519396,0.166808,-0.066405,-0.905249,1.094284,-0.271923
16.7546,-0.443618,0.099533,-0.633324,-0.265259,0.265597,-0.269888,-0.510430,1.788748,-0.207546,0.060520,-0.172811,0.073866,-0.584280,0.181428,0.003697,-0.905052,1.089061,-0.297094
16.7880,-0.382745,0.176743,-0.627818,-0.226372,0.312711,-0.234897,-0.683585,1.938715,-0.270667,-0.016445,-0.155876,0.117316,-0.639845,0.192755,0.053890,-0.864174,1.080105,-0.340574
16.8214,-0.300660,0.252288,-0.588844,-0.205119,0.327860,-0.223268,-0.808301,1.994914,-0.296847,-0.086691,-0.148114,0.144540,-0.670239,0.192452,0.095835,-0.787695,1.062006,-0.375502
16.8548,-0.205165,0.315925,-0.504418,-0.209978,0.321204,-0.233306,-0.900156,1.971088,-0.298609,-0.147666,-0.151247,0.159537,-0.698157,0.169181,0.132519,-0.686424,1.026354,-0.407562
16.8881,-0.097039,0.374650,-0.384225,-0.253707,0.322942,-0.232192,-0.953011,1.888634,-0.295611,-0.192981,-0.156701,0.149392,-0.727112,0.138864,0.185117,-0.554888,0.962796,-0.435257
16.9215,0.004989,0.421297,-0.243940,-0.308117,0.323373,-0.240227,-0.998828,1.760762,-0.291070,-0.232520,-0.174049,0.151281,-0.761985,0.103039,0.231874,-0.438220,0.901786,-0.457353
16.9549,0.093396,0.453978,-0.125273,-0.359567,0.317808,-0.260777,-1.020583,1.581769,-0.270586,-0.277490,-0.196868,0.161503,-0.783685,0.067564,0.263446,-0.336489,0.838187,-0.467082
16.9883,0.167497,0.482486,-0.038282,-0.399955,0.328935,-0.303900,-1.003848,1.349388,-0.246836,-0.316764,-0.211494,0.166690,-0.801280,0.032703,0.305320,-0.224329,0.749828,-0.469445
17.0216,0.229481,0.501136,0.029600,-0.426048,0.340338,-0.402451,-0.938162,1.071259,-0.225351,-0.346038,-0.226928,0.165702,-0.812567,-0.006813,0.333636,-0.113283,0.662107,-0.468684
17.0550,0.246254,0.540515,0.046220,-0.416415,0.365981,-0.527361,-1.010102,1.037952,-0.286922,-0.350186,-0.233939,0.162830,-0.825637,-0.019497,0.378075,-0.062466,0.695146,-0.524502
17.0884,0.266414,0.561612,0.073757,-0.407076,0.344830,-0.629944,-1.052594,0.978263,-0.310629,-0.359058,-0.242022,0.159230,-0.838754,-0.052099,0.398171,-0.017420,0.710053,-0.551842
17.1218,0.290705,0.495676,0.131591,-0.414572,0.245972,-0.626747,-0.814583,0.432909,-0.105600,-0.378405,-0.282924,0.159175,-0.848579,-0.127767,0.387562,0.028610,0.604450,-0.472215
17.1551,0.286352,0.464997,0.141701,-0.385713,0.245999,-0.602097,-0.657993,0.244844,0.005665,-0.341140,-0.291442,0.144140,-0.859323,-0.180439,0.376384,0.070725,0.632853,-0.450646
17.1885,0.266311,0.434467,0.140843,-0.367500,0.230819,-0.582121,-0.616624,0.250117,-0.007120,-0.306374,-0.303574,0.141080,-0.856903,-0.234320,0.359437,0.059591,0.735412,-0.425773
17.2219,0.248612,0.389577,0.114512,-0.345583,0.220920,-0.556019,-0.541841,0.290704,-0.031623,-0.234782,-0.311480,0.128855,-0.841644,-0.306435,0.316536,0.039686,0.900437,-0.332637
17.2553,0.224096,0.333783,0.046700,-0.321829,0.221024,-0.543585,-0.433362,0.350225,-0.099228,-0.135264,-0.324377,0.123321,-0.810062,-0.351381,0.226650,-0.039586,1.144883,-0.243085
17.2887,0.166073,0.268641,-0.027625,-0.310371,0.199890,-0.564910,-0.347458,0.369717,-0.158720,-0.069265,-0.348996,0.122516,-0.753781,-0.353119,0.122457,-0.234957,1.455757,-0.158356
17.3220,0.085903,0.244470,-0.072370,-0.335001,0.172562,-0.559264,-0.319957,0.339192,-0.173993,-0.033263,-0.338271,0.115312,-0.698937,-0.285736,0.073062,-0.450770,1.676954,-0.100570
17.3554,-0.012314,0.245569,-0.145183,-0.358203,0.155819,-0.532349,-0.286343,0.258329,-0.159465,-0.003858,-0.307882,0.103539,-0.641444,-0.186087,0.056682,-0.649999,1.815632,-0.097683
17.3888,-0.118889,0.233614,-0.234050,-0.377073,0.135502,-0.487639,-0.232083,0.183893,-0.141274,0.049685,-0.278658,0.075533,-0.592778,-0.115617,0.037250,-0.802130,1.884537,-0.084013
17.4222,-0.207019,0.202560,-0.317251,-0.401507,0.111930,-0.487960,-0.189922,0.211883,-0.175248,0.117429,-0.281959,0.062990,-0.561506,-0.099655,-0.005160,-0.905875,1.903802,-0.099741
17.4555,-0.302422,0.164947,-0.415176,-0.423716,0.094139,-0.485973,-0.164504,0.268256,-0.219411,0.185943,-0.276106,0.056303,-0.530816,-0.079344,-0.049437,-0.983683,1.865015,-0.112013
17.4889,-0.392258,0.119297,-0.492408,-0.448064,0.078092,-0.475692,-0.152284,0.339370,-0.264990,0.246831,-0.264458,0.055766,-0.507606,-0.054994,-0.102308,-1.028889,1.766354,-0.136297
17.5223,-0.481536,0.074174,-0.573776,-0.465551,0.071812,-0.455458,-0.146331,0.416544,-0.323527,0.297417,-0.246758,0.072605,-0.486165,-0.037619,-0.126432,-1.045444,1.615757,-0.150059
17.5557,-0.564312,0.022717,-0.614841,-0.471148,0.058967,-0.436109,-0.137158,0.467465,-0.368067,0.324955,-0.234780,0.093771,-0.455339,-0.032401,-0.136340,-1.045796,1.425557,-0.145826
17.5890,-0.615339,0.009670,-0.611409,-0.521109,0.039555,-0.423554,-0.127839,0.477235,-0.376751,0.317645,-0.233793,0.142201,-0.418537,-0.021991,-0.136732,-1.043648,1.197148,-0.116280
17.6224,-0.649970,0.003250,-0.593191,-0.576372,0.025863,-0.412127,-0.104020,0.467668,-0.381713,0.300703,-0.237736,0.174767,-0.397125,-0.001504,-0.124224,-1.013345,0.938961,-0.077846
17.6558,-0.674682,0.000276,-0.568310,-0.619129,0.016237,-0.420265,-0.073739,0.446514,-0.387920,0.274880,-0.247602,0.195561,-0.389128,0.023816,-0.085733,-0.974644,0.694929,-0.041388
17.6892,-0.682331,0.000317,-0.542337,-0.642442,0.015404,-0.421696,-0.034560,0.446825,-0.408859,0.245164,-0.255808,0.216000,-0.379503,0.052233,-0.067318,-0.919281,0.511367,-0.025907
17.7225,-0.682590,0.000001,-0.532391,-0.650329,0.006037,-0.419947,-0.035340,0.518897,-0.436005,0.219339,-0.279027,0.224340,-0.389064,0.064666,-0.070498,-0.947905,0.549279,-0.049510
17.7559,-0.671376,0.000000,-0.523259,-0.643267,0.006649,-0.397050,-0.038852,0.611604,-0.454785,0.187934,-0.286054,0.226498,-0.400026,0.084769,-0.101041,-0.949937,0.636761,-0.072048
17.7893,-0.641901,0.002489,-0.514966,-0.616825,0.016213,-0.370094,-0.036152,0.728045,-0.464816,0.156619,-0.282849,0.215033,-0.411312,0.100843,-0.160092,-0.944893,0.740636,-0.119746
17.8227,-0.595334,0.011935,-0.514527,-0.572722,0.061018,-0.377556,-0.033371,0.877136,-0.434009,0.123553,-0.276253,0.192409,-0.422695,0.091170,-0.154056,-0.957489,0.878448,-0.145575
17.8560,-0.537931,0.027606,-0.533438,-0.512736,0.111931,-0.347690,-0.065298,1.084935,-0.353926,0.095617,-0.263564,0.168796,-0.436540,0.098536,-0.131725,-0.945389,1.017784,-0.217669
17.8894,-0.474062,0.048904,-0.574706,-0.367750,0.171179,-0.277351,-0.207253,1.414083,-0.279173,0.062195,-0.208487,0.150613,-0.467344,0.123723,-0.060058,-0.896691,1.098099,-0.304001
17.9228,-0.461174,0.100349,-0.582426,-0.274046,0.235003,-0.234680,-0.437573,1.697738,-0.196947,-0.004392,-0.177439,0.144430,-0.529866,0.139339,0.006134,-0.880092,1.080677,-0.327557
17.9562,-0.415319,0.158214,-0.559163,-0.247494,0.256807,-0.213399,-0.607467,1.863982,-0.242510,-0.065852,-0.176805,0.159902,-0.582299,0.134491,0.052144,-0.845165,1.078488,-0.368748
17.9895,-0.333967,0.233460,-0.489703,-0.254574,0.284079,-0.190298,-0.739687,1.947515,-0.282908,-0.126102,-0.171708,0.178989,-0.615184,0.141842,0.095455,-0.780579,1.070360,-0.402451
18.0229,-0.236500,0.294032,-0.400769,-0.280217,0.290229,-0.187308,-0.831314,1.950655,-0.295399,-0.170373,-0.175913,0.178846,-0.642250,0.124526,0.140608,-0.684706,1.049731,-0.441387
18.0563,-0.142132,0.344698,-0.311358,-0.314329,0.295824,-0.169709,-0.901878,1.899340,-0.319012,-0.200435,-0.178413,0.162896,-0.668959,0.097768,0.189467,-0.558304,0.993493,-0.476401
18.0897,-0.058567,0.385462,-0.236857,-0.344908,0.293573,-0.187632,-0.949094,1.784788,-0.316521,-0.230201,-0.191959,0.159076,-0.700225,0.066967,0.220583,-0.445647,0.937641,-0.497096
18.1230,0.013560,0.421072,-0.162417,-0.377341,0.285459,-0.200919,-0.985445,1.620548,-0.291412,-0.261266,-0.207022,0.164014,-0.730401,0.039895,0.249868,-0.342445,0.871672,-0.502895
18.1564,0.070721,0.447903,-0.103374,-0.402768,0.281683,-0.242448,-0.990264,1.403768,-0.254248,-0.292976,-0.226771,0.186593,-0.760971,0.006593,0.281871,-0.245359,0.793178,-0.507141
18.1898,0.113786,0.463419,-0.044971,-0.418988,0.256728,-0.311803,-0.965902,1.123196,-0.188812,-0.327471,-0.246965,0.187739,-0.777864,-0.029810,0.310089,-0.165304,0.708339,-0.499417
18.2232,0.142478,0.472387,0.004558,-0.428762,0.219090,-0.404571,-0.915067,0.797837,-0.103538,-0.357577,-0.266281,0.187679,-0.794987,-0.062508,0.340984,-0.101318,0.625695,-0.482770
18.2566,0.161231,0.478130,0.043083,-0.430429,0.181384,-0.467606,-0.848947,0.470688,-0.007611,-0.380242,-0.278537,0.183445,-0.808997,-0.086453,0.378041,-0.055429,0.566454,-0.469635
18.2899,0.184743,0.473807,0.069594,-0.429661,0.158038,-0.472135,-0.735086,0.154905,0.089288,-0.392173,-0.281252,0.180850,-0.815288,-0.108166,0.394828,-0.028710,0.558337,-0.467228
18.3233,0.187340,0.463431,0.078284,-0.423819,0.146744,-0.445613,-0.726587,0.131599,0.110197,-0.393889,-0.288938,0.172556,-0.822236,-0.133034,0.396290,-0.042429,0.616977,-0.474469
18.3567,0.196391,0.438313,0.080200,-0.409855,0.149763,-0.429065,-0.680343,0.134436,0.091449,-0.373969,-0.291573,0.165814,-0.819692,-0.166665,0.383112,-0.044731,0.696101,-0.465509
18.3901,0.201578,0.399460,0.076039,-0.393411,0.140093,-0.437984,-0.623154,0.149508,0.085698,-0.330966,-0.296295,0.157325,-0.808192,-0.224121,0.358947,-0.049404,0.804535,-0.427634
18.4234,0.205644,0.338986,0.054012,-0.365188,0.132610,-0.449379,-0.519403,0.173294,0.049636,-0.257665,-0.306178,0.148930,-0.779742,-0.298577,0.301635,-0.072791,0.975346,-0.360805
